;FLAVOR:Marlin
;TIME:1597
;Filament used: 0.731057m
;Layer height: 0.15
;MINX:57.2
;MINY:57.2
;MINZ:0.3
;MAXX:92.8
;MAXY:92.8
;MAXZ:19.95
;Generated with Cura_SteamEngine 5.0.0
M400  ;RealTime Mode
M104 S200
M105
M109 S200
M82 ;absolute extrusion mode
G28 ;Home
G1 Z15.0 F6000 ;Move the platform down 15mm
;Prime the extruder
G92 E0
G1 F100 E3
G92 E0
G92 E0
G92 E0
G1 F1500 E-6.5
;LAYER_COUNT:132
;LAYER:0
M107
G0 F3600 X59.623 Y59.349 Z0.3
G0 X57.2 Y65
;TYPE:SKIRT
G1 F1500 E0
G1 F1800 X57.24 Y64.211 E0.01486
G1 X57.359 Y63.431 E0.0297
G1 X57.557 Y62.666 E0.04457
G1 X57.831 Y61.926 E0.05941
G1 X58.179 Y61.217 E0.07427
G1 X58.597 Y60.546 E0.08914
G1 X59.08 Y59.922 E0.10398
G1 X59.623 Y59.349 E0.11883
G1 X60.222 Y58.834 E0.13369
G1 X60.87 Y58.383 E0.14854
G1 X61.561 Y57.999 E0.16341
G1 X62.286 Y57.687 E0.17826
G1 X63.039 Y57.45 E0.19311
G1 X63.813 Y57.291 E0.20797
G1 X64.598 Y57.21 E0.22282
G1 X65 Y57.2 E0.23038
G1 X85 Y57.2 E0.60659
G1 X85.789 Y57.24 E0.62145
G1 X86.569 Y57.359 E0.63629
G1 X87.334 Y57.557 E0.65116
G1 X88.074 Y57.831 E0.666
G1 X88.783 Y58.179 E0.68086
G1 X89.454 Y58.597 E0.69573
G1 X90.078 Y59.08 E0.71057
G1 X90.651 Y59.623 E0.72542
G1 X91.166 Y60.222 E0.74028
G1 X91.617 Y60.87 E0.75513
G1 X92.001 Y61.561 E0.77
G1 X92.313 Y62.286 E0.78485
G1 X92.55 Y63.039 E0.7997
G1 X92.709 Y63.813 E0.81456
G1 X92.79 Y64.598 E0.82941
G1 X92.8 Y65 E0.83697
G1 X92.8 Y85 E1.21318
G1 X92.76 Y85.789 E1.22804
G1 X92.641 Y86.569 E1.24288
G1 X92.443 Y87.334 E1.25775
G1 X92.169 Y88.074 E1.27259
G1 X91.821 Y88.783 E1.28745
G1 X91.403 Y89.454 E1.30232
G1 X90.92 Y90.078 E1.31716
G1 X90.377 Y90.651 E1.33201
G1 X89.778 Y91.166 E1.34687
G1 X89.13 Y91.617 E1.36172
G1 X88.439 Y92.001 E1.37659
G1 X87.714 Y92.313 E1.39144
G1 X86.961 Y92.55 E1.40629
G1 X86.187 Y92.709 E1.42115
G1 X85.402 Y92.79 E1.436
G1 X85 Y92.8 E1.44356
G1 X65 Y92.8 E1.81977
G1 X64.211 Y92.76 E1.83463
G1 X63.431 Y92.641 E1.84947
G1 X62.666 Y92.443 E1.86434
G1 X61.926 Y92.169 E1.87918
G1 X61.217 Y91.821 E1.89404
G1 X60.546 Y91.403 E1.90891
G1 X59.922 Y90.92 E1.92375
G1 X59.349 Y90.377 E1.9386
G1 X58.834 Y89.778 E1.95346
G1 X58.383 Y89.13 E1.96831
G1 X57.999 Y88.439 E1.98318
G1 X57.687 Y87.714 E1.99803
G1 X57.45 Y86.961 E2.01288
G1 X57.291 Y86.187 E2.02774
G1 X57.21 Y85.402 E2.04259
G1 X57.2 Y85 E2.05015
G1 X57.2 Y65 E2.42636
G0 F3600 X57.6 Y65
G1 F1800 X57.64 Y64.232 E2.44083
G1 X57.759 Y63.472 E2.4553
G1 X57.957 Y62.729 E2.46976
G1 X58.231 Y62.01 E2.48424
G1 X58.578 Y61.324 E2.4987
G1 X58.994 Y60.677 E2.51317
G1 X59.475 Y60.077 E2.52763
G1 X60.016 Y59.53 E2.5421
G1 X60.611 Y59.042 E2.55658
G1 X61.253 Y58.619 E2.57104
G1 X61.936 Y58.264 E2.58552
G1 X62.651 Y57.983 E2.59997
G1 X63.393 Y57.777 E2.61446
G1 X64.151 Y57.649 E2.62892
G1 X65 Y57.6 E2.64491
G1 X85 Y57.6 E3.02112
G1 X85.768 Y57.64 E3.03559
G1 X86.528 Y57.759 E3.05006
G1 X87.271 Y57.957 E3.06452
G1 X87.99 Y58.231 E3.079
G1 X88.676 Y58.578 E3.09346
G1 X89.323 Y58.994 E3.10793
G1 X89.923 Y59.475 E3.12239
G1 X90.47 Y60.016 E3.13686
G1 X90.958 Y60.611 E3.15134
G1 X91.381 Y61.253 E3.1658
G1 X91.736 Y61.936 E3.18028
G1 X92.017 Y62.651 E3.19473
G1 X92.223 Y63.393 E3.20922
G1 X92.351 Y64.151 E3.22368
G1 X92.4 Y65 E3.23967
G1 X92.4 Y85 E3.61589
G1 X92.36 Y85.768 E3.63035
G1 X92.241 Y86.528 E3.64482
G1 X92.043 Y87.271 E3.65929
G1 X91.769 Y87.99 E3.67376
G1 X91.422 Y88.676 E3.68822
G1 X91.006 Y89.323 E3.70269
G1 X90.525 Y89.923 E3.71715
G1 X89.984 Y90.47 E3.73163
G1 X89.389 Y90.958 E3.7461
G1 X88.747 Y91.381 E3.76056
G1 X88.064 Y91.736 E3.77504
G1 X87.349 Y92.017 E3.78949
G1 X86.607 Y92.223 E3.80398
G1 X85.849 Y92.351 E3.81844
G1 X85 Y92.4 E3.83444
G1 X65 Y92.4 E4.21065
G1 X64.232 Y92.36 E4.22511
G1 X63.472 Y92.241 E4.23958
G1 X62.729 Y92.043 E4.25405
G1 X62.01 Y91.769 E4.26852
G1 X61.324 Y91.422 E4.28298
G1 X60.677 Y91.006 E4.29745
G1 X60.077 Y90.525 E4.31192
G1 X59.53 Y89.984 E4.32639
G1 X59.042 Y89.389 E4.34086
G1 X58.619 Y88.747 E4.35533
G1 X58.264 Y88.064 E4.36981
G1 X57.983 Y87.349 E4.38426
G1 X57.777 Y86.607 E4.39874
G1 X57.649 Y85.849 E4.4132
G1 X57.6 Y85 E4.4292
G1 X57.6 Y65 E4.80541
G0 F3600 X58 Y65
G1 F1800 X58.04 Y64.253 E4.81948
G1 X58.159 Y63.515 E4.83354
G1 X58.357 Y62.793 E4.84763
G1 X58.63 Y62.097 E4.86169
G1 X58.977 Y61.434 E4.87576
G1 X59.392 Y60.811 E4.88985
G1 X59.871 Y60.237 E4.90391
G1 X60.408 Y59.716 E4.91798
G1 X60.998 Y59.257 E4.93204
G1 X61.634 Y58.862 E4.94613
G1 X62.308 Y58.538 E4.96019
G1 X63.013 Y58.288 E4.97426
G1 X63.741 Y58.114 E4.98834
G1 X64.483 Y58.019 E5.00242
G1 X65 Y58 E5.01215
G1 X85 Y58 E5.38836
G1 X85.747 Y58.04 E5.40243
G1 X86.485 Y58.159 E5.41649
G1 X87.207 Y58.357 E5.43057
G1 X87.903 Y58.63 E5.44464
G1 X88.566 Y58.977 E5.45871
G1 X89.189 Y59.392 E5.47279
G1 X89.763 Y59.871 E5.48686
G1 X90.284 Y60.408 E5.50093
G1 X90.743 Y60.998 E5.51499
G1 X91.138 Y61.634 E5.52908
G1 X91.462 Y62.308 E5.54314
G1 X91.712 Y63.013 E5.55721
G1 X91.886 Y63.741 E5.57129
G1 X91.981 Y64.483 E5.58537
G1 X92 Y65 E5.5951
G1 X92 Y85 E5.97131
G1 X91.96 Y85.747 E5.98538
G1 X91.841 Y86.485 E5.99944
G1 X91.643 Y87.207 E6.01352
G1 X91.37 Y87.903 E6.02759
G1 X91.023 Y88.566 E6.04166
G1 X90.608 Y89.189 E6.05574
G1 X90.129 Y89.763 E6.06981
G1 X89.592 Y90.284 E6.08388
G1 X89.002 Y90.743 E6.09794
G1 X88.366 Y91.138 E6.11203
G1 X87.692 Y91.462 E6.12609
G1 X86.987 Y91.712 E6.14016
G1 X86.259 Y91.886 E6.15424
G1 X85.517 Y91.981 E6.16831
G1 X85 Y92 E6.17805
G1 X65 Y92 E6.55426
G1 X64.253 Y91.96 E6.56833
G1 X63.515 Y91.841 E6.58239
G1 X62.793 Y91.643 E6.59647
G1 X62.097 Y91.37 E6.61054
G1 X61.434 Y91.023 E6.62461
G1 X60.811 Y90.608 E6.63869
G1 X60.237 Y90.129 E6.65276
G1 X59.716 Y89.592 E6.66683
G1 X59.257 Y89.002 E6.68089
G1 X58.862 Y88.366 E6.69497
G1 X58.538 Y87.692 E6.70904
G1 X58.288 Y86.987 E6.72311
G1 X58.114 Y86.259 E6.73719
G1 X58.019 Y85.517 E6.75126
G1 X58 Y85 E6.761
G1 X58 Y65 E7.13721
G0 F3600 X58.4 Y65
G1 F1800 X58.44 Y64.275 E7.15086
G1 X58.559 Y63.558 E7.16454
G1 X58.757 Y62.859 E7.1782
G1 X59.03 Y62.186 E7.19186
G1 X59.375 Y61.547 E7.20552
G1 X59.789 Y60.95 E7.21919
G1 X60.265 Y60.402 E7.23284
G1 X60.799 Y59.909 E7.24651
G1 X61.384 Y59.479 E7.26017
G1 X62.013 Y59.115 E7.27384
G1 X62.678 Y58.822 E7.28751
G1 X63.371 Y58.604 E7.30118
G1 X64.083 Y58.464 E7.31483
G1 X65 Y58.4 E7.33212
G1 X85 Y58.4 E7.70833
G1 X85.725 Y58.44 E7.72199
G1 X86.442 Y58.559 E7.73566
G1 X87.141 Y58.757 E7.74932
G1 X87.814 Y59.03 E7.76299
G1 X88.453 Y59.375 E7.77665
G1 X89.05 Y59.789 E7.79031
G1 X89.598 Y60.265 E7.80397
G1 X90.091 Y60.799 E7.81764
G1 X90.521 Y61.384 E7.83129
G1 X90.885 Y62.013 E7.84496
G1 X91.178 Y62.678 E7.85863
G1 X91.396 Y63.371 E7.8723
G1 X91.536 Y64.083 E7.88595
G1 X91.6 Y65 E7.90324
G1 X91.6 Y85 E8.27945
G1 X91.56 Y85.725 E8.29311
G1 X91.441 Y86.442 E8.30678
G1 X91.243 Y87.141 E8.32045
G1 X90.97 Y87.814 E8.33411
G1 X90.625 Y88.453 E8.34777
G1 X90.211 Y89.05 E8.36143
G1 X89.735 Y89.598 E8.37509
G1 X89.201 Y90.091 E8.38876
G1 X88.616 Y90.521 E8.40242
G1 X87.987 Y90.885 E8.41609
G1 X87.322 Y91.178 E8.42976
G1 X86.629 Y91.396 E8.44342
G1 X85.917 Y91.536 E8.45707
G1 X85 Y91.6 E8.47436
G1 X65 Y91.6 E8.85057
G1 X64.275 Y91.56 E8.86423
G1 X63.558 Y91.441 E8.8779
G1 X62.859 Y91.243 E8.89157
G1 X62.186 Y90.97 E8.90523
G1 X61.547 Y90.625 E8.91889
G1 X60.95 Y90.211 E8.93256
G1 X60.402 Y89.735 E8.94621
G1 X59.909 Y89.201 E8.95988
G1 X59.479 Y88.616 E8.97354
G1 X59.115 Y87.987 E8.98721
G1 X58.822 Y87.322 E9.00088
G1 X58.604 Y86.629 E9.01454
G1 X58.464 Y85.917 E9.02819
G1 X58.4 Y85 E9.04548
G1 X58.4 Y65 E9.4217
G0 F3600 X58.8 Y65
G1 F1800 X58.84 Y64.297 E9.43494
G1 X58.959 Y63.603 E9.44819
G1 X59.157 Y62.928 E9.46142
G1 X59.429 Y62.279 E9.47466
G1 X59.774 Y61.665 E9.4879
G1 X60.185 Y61.094 E9.50114
G1 X60.659 Y60.573 E9.51439
G1 X61.189 Y60.109 E9.52764
G1 X61.768 Y59.709 E9.54087
G1 X62.389 Y59.377 E9.55412
G1 X63.043 Y59.117 E9.56736
G1 X63.723 Y58.933 E9.58061
G1 X64.419 Y58.827 E9.59385
G1 X65 Y58.8 E9.60479
G1 X85 Y58.8 E9.98101
G1 X85.703 Y58.84 E9.99425
G1 X86.397 Y58.959 E10.0075
G1 X87.072 Y59.157 E10.02073
G1 X87.721 Y59.429 E10.03396
G1 X88.335 Y59.774 E10.04721
G1 X88.906 Y60.185 E10.06045
G1 X89.427 Y60.659 E10.0737
G1 X89.891 Y61.189 E10.08695
G1 X90.291 Y61.768 E10.10018
G1 X90.623 Y62.389 E10.11343
G1 X90.883 Y63.043 E10.12667
G1 X91.067 Y63.723 E10.13992
G1 X91.173 Y64.419 E10.15316
G1 X91.2 Y65 E10.1641
G1 X91.2 Y85 E10.54031
G1 X91.16 Y85.703 E10.55356
G1 X91.041 Y86.397 E10.5668
G1 X90.843 Y87.072 E10.58004
G1 X90.571 Y87.721 E10.59327
G1 X90.226 Y88.335 E10.60652
G1 X89.815 Y88.906 E10.61976
G1 X89.341 Y89.427 E10.633
G1 X88.811 Y89.891 E10.64626
G1 X88.232 Y90.291 E10.65949
G1 X87.611 Y90.623 E10.67274
G1 X86.957 Y90.883 E10.68598
G1 X86.277 Y91.067 E10.69923
G1 X85.581 Y91.173 E10.71247
G1 X85 Y91.2 E10.72341
G1 X65 Y91.2 E11.09962
G1 X64.297 Y91.16 E11.11287
G1 X63.603 Y91.041 E11.12611
G1 X62.928 Y90.843 E11.13935
G1 X62.279 Y90.571 E11.15258
G1 X61.665 Y90.226 E11.16583
G1 X61.094 Y89.815 E11.17906
G1 X60.573 Y89.341 E11.19231
G1 X60.109 Y88.811 E11.20556
G1 X59.709 Y88.232 E11.2188
G1 X59.377 Y87.611 E11.23205
G1 X59.117 Y86.957 E11.24529
G1 X58.933 Y86.277 E11.25854
G1 X58.827 Y85.581 E11.27178
G1 X58.8 Y85 E11.28272
G1 X58.8 Y65 E11.65893
G0 F3600 X59.2 Y65
G1 F1800 X59.24 Y64.32 E11.67175
G1 X59.359 Y63.65 E11.68455
G1 X59.556 Y62.998 E11.69736
G1 X59.828 Y62.374 E11.71016
G1 X60.172 Y61.786 E11.72298
G1 X60.582 Y61.242 E11.73579
G1 X61.053 Y60.751 E11.74859
G1 X61.578 Y60.317 E11.7614
G1 X62.15 Y59.948 E11.77421
G1 X62.762 Y59.649 E11.78702
G1 X63.404 Y59.424 E11.79982
G1 X64.069 Y59.275 E11.81264
G1 X65 Y59.2 E11.8302
G1 X85 Y59.2 E12.20642
G1 X85.68 Y59.24 E12.21923
G1 X86.35 Y59.359 E12.23203
G1 X87.002 Y59.556 E12.24484
G1 X87.626 Y59.828 E12.25765
G1 X88.214 Y60.172 E12.27046
G1 X88.758 Y60.582 E12.28327
G1 X89.249 Y61.053 E12.29607
G1 X89.683 Y61.578 E12.30889
G1 X90.052 Y62.15 E12.32169
G1 X90.351 Y62.762 E12.3345
G1 X90.576 Y63.404 E12.3473
G1 X90.725 Y64.069 E12.36012
G1 X90.8 Y65 E12.37769
G1 X90.8 Y85 E12.7539
G1 X90.76 Y85.68 E12.76671
G1 X90.641 Y86.35 E12.77951
G1 X90.444 Y87.002 E12.79232
G1 X90.172 Y87.626 E12.80513
G1 X89.828 Y88.214 E12.81794
G1 X89.418 Y88.758 E12.83076
G1 X88.947 Y89.249 E12.84356
G1 X88.422 Y89.683 E12.85637
G1 X87.85 Y90.052 E12.86917
G1 X87.238 Y90.351 E12.88198
G1 X86.596 Y90.576 E12.89478
G1 X85.931 Y90.725 E12.9076
G1 X85 Y90.8 E12.92517
G1 X65 Y90.8 E13.30138
G1 X64.32 Y90.76 E13.31419
G1 X63.65 Y90.641 E13.32699
G1 X62.998 Y90.444 E13.33981
G1 X62.374 Y90.172 E13.35261
G1 X61.786 Y89.828 E13.36543
G1 X61.242 Y89.418 E13.37824
G1 X60.751 Y88.947 E13.39104
G1 X60.317 Y88.422 E13.40385
G1 X59.948 Y87.85 E13.41666
G1 X59.649 Y87.238 E13.42947
G1 X59.424 Y86.596 E13.44226
G1 X59.275 Y85.931 E13.45508
G1 X59.2 Y85 E13.47265
G1 X59.2 Y65 E13.84886
G0 F3600 X59.6 Y65
G1 F1800 X59.64 Y64.344 E13.86123
G1 X59.759 Y63.698 E13.87358
G1 X59.956 Y63.071 E13.88595
G1 X60.228 Y62.473 E13.8983
G1 X60.57 Y61.912 E13.91066
G1 X60.978 Y61.397 E13.92302
G1 X61.445 Y60.935 E13.93538
G1 X61.965 Y60.534 E13.94773
G1 X62.529 Y60.198 E13.96008
G1 X63.131 Y59.934 E13.97244
G1 X63.76 Y59.744 E13.9848
G1 X64.407 Y59.633 E13.99715
G1 X65 Y59.6 E14.00832
G1 X85 Y59.6 E14.38454
G1 X85.656 Y59.64 E14.3969
G1 X86.302 Y59.759 E14.40925
G1 X86.929 Y59.956 E14.42162
G1 X87.527 Y60.228 E14.43397
G1 X88.088 Y60.57 E14.44633
G1 X88.603 Y60.978 E14.45869
G1 X89.065 Y61.445 E14.47105
G1 X89.466 Y61.965 E14.4834
G1 X89.802 Y62.529 E14.49575
G1 X90.066 Y63.131 E14.50812
G1 X90.256 Y63.76 E14.52048
G1 X90.367 Y64.407 E14.53282
G1 X90.4 Y65 E14.544
G1 X90.4 Y85 E14.92021
G1 X90.36 Y85.656 E14.93257
G1 X90.241 Y86.302 E14.94493
G1 X90.044 Y86.929 E14.95729
G1 X89.772 Y87.527 E14.96965
G1 X89.43 Y88.088 E14.982
G1 X89.022 Y88.603 E14.99436
G1 X88.555 Y89.065 E15.00672
G1 X88.035 Y89.466 E15.01907
G1 X87.471 Y89.802 E15.03142
G1 X86.869 Y90.066 E15.04379
G1 X86.24 Y90.256 E15.05615
G1 X85.593 Y90.367 E15.0685
G1 X85 Y90.4 E15.07967
G1 X65 Y90.4 E15.45588
G1 X64.344 Y90.36 E15.46824
G1 X63.698 Y90.241 E15.4806
G1 X63.071 Y90.044 E15.49296
G1 X62.473 Y89.772 E15.50532
G1 X61.912 Y89.43 E15.51768
G1 X61.397 Y89.022 E15.53004
G1 X60.935 Y88.555 E15.54239
G1 X60.534 Y88.035 E15.55474
G1 X60.198 Y87.471 E15.56709
G1 X59.934 Y86.869 E15.57946
G1 X59.744 Y86.24 E15.59182
G1 X59.633 Y85.593 E15.60417
G1 X59.6 Y85 E15.61534
G1 X59.6 Y65 E15.99155
G0 F3600 X60 Y65
G1 F1800 X60.04 Y64.369 E16.00344
G1 X60.159 Y63.748 E16.01534
G1 X60.356 Y63.148 E16.02722
G1 X60.627 Y62.576 E16.03912
G1 X60.967 Y62.044 E16.051
G1 X61.373 Y61.559 E16.0629
G1 X61.836 Y61.129 E16.07478
G1 X62.35 Y60.76 E16.08668
G1 X62.906 Y60.46 E16.09857
G1 X63.495 Y60.232 E16.11045
G1 X64.109 Y60.08 E16.12235
G1 X65 Y60 E16.13917
G1 X85 Y60 E16.51539
G1 X85.631 Y60.04 E16.52728
G1 X86.252 Y60.159 E16.53917
G1 X86.852 Y60.356 E16.55105
G1 X87.424 Y60.627 E16.56296
G1 X87.956 Y60.967 E16.57483
G1 X88.441 Y61.373 E16.58673
G1 X88.871 Y61.836 E16.59862
G1 X89.24 Y62.35 E16.61052
G1 X89.54 Y62.906 E16.6224
G1 X89.768 Y63.495 E16.63429
G1 X89.92 Y64.109 E16.64618
G1 X90 Y65 E16.66301
G1 X90 Y85 E17.03922
G1 X89.96 Y85.631 E17.05112
G1 X89.841 Y86.252 E17.06301
G1 X89.644 Y86.852 E17.07489
G1 X89.373 Y87.424 E17.08679
G1 X89.033 Y87.956 E17.09867
G1 X88.627 Y88.441 E17.11057
G1 X88.164 Y88.871 E17.12245
G1 X87.65 Y89.24 E17.13436
G1 X87.094 Y89.54 E17.14624
G1 X86.505 Y89.768 E17.15812
G1 X85.891 Y89.92 E17.17002
G1 X85 Y90 E17.18685
G1 X65 Y90 E17.56306
G1 X64.369 Y89.96 E17.57495
G1 X63.748 Y89.841 E17.58685
G1 X63.148 Y89.644 E17.59872
G1 X62.576 Y89.373 E17.61063
G1 X62.044 Y89.033 E17.62251
G1 X61.559 Y88.627 E17.6344
G1 X61.129 Y88.164 E17.64629
G1 X60.76 Y87.65 E17.65819
G1 X60.46 Y87.094 E17.67008
G1 X60.232 Y86.505 E17.68196
G1 X60.08 Y85.891 E17.69386
G1 X60 Y85 E17.71068
G1 X60 Y65 E18.08689
G0 F3600 X60.4 Y65
G1 F1800 X60.44 Y64.395 E18.0983
G1 X60.559 Y63.801 E18.1097
G1 X60.755 Y63.227 E18.1211
G1 X61.026 Y62.684 E18.13252
G1 X61.365 Y62.181 E18.14393
G1 X61.767 Y61.728 E18.15532
G1 X62.225 Y61.331 E18.16672
G1 X62.732 Y60.998 E18.17813
G1 X63.278 Y60.734 E18.18954
G1 X63.854 Y60.545 E18.20095
G1 X64.45 Y60.433 E18.21235
G1 X65 Y60.4 E18.22272
G1 X85 Y60.4 E18.59893
G1 X85.605 Y60.44 E18.61033
G1 X86.199 Y60.559 E18.62173
G1 X86.773 Y60.755 E18.63314
G1 X87.316 Y61.026 E18.64455
G1 X87.819 Y61.365 E18.65596
G1 X88.272 Y61.767 E18.66736
G1 X88.669 Y62.225 E18.67876
G1 X89.002 Y62.732 E18.69017
G1 X89.266 Y63.278 E18.70158
G1 X89.455 Y63.854 E18.71298
G1 X89.567 Y64.45 E18.72439
G1 X89.6 Y65 E18.73475
G1 X89.6 Y85 E19.11096
G1 X89.56 Y85.605 E19.12237
G1 X89.441 Y86.199 E19.13376
G1 X89.245 Y86.773 E19.14517
G1 X88.974 Y87.316 E19.15659
G1 X88.635 Y87.819 E19.168
G1 X88.233 Y88.272 E19.17939
G1 X87.775 Y88.669 E19.19079
G1 X87.268 Y89.002 E19.2022
G1 X86.722 Y89.266 E19.21361
G1 X86.146 Y89.455 E19.22501
G1 X85.55 Y89.567 E19.23642
G1 X85 Y89.6 E19.24679
G1 X65 Y89.6 E19.623
G1 X64.395 Y89.56 E19.6344
G1 X63.801 Y89.441 E19.6458
G1 X63.227 Y89.245 E19.65721
G1 X62.684 Y88.974 E19.66862
G1 X62.181 Y88.635 E19.68003
G1 X61.728 Y88.233 E19.69142
G1 X61.331 Y87.775 E19.70283
G1 X60.998 Y87.268 E19.71424
G1 X60.734 Y86.722 E19.72564
G1 X60.545 Y86.146 E19.73705
G1 X60.433 Y85.55 E19.74845
G1 X60.4 Y85 E19.75882
G1 X60.4 Y65 E20.13503
G0 F3600 X60.8 Y65
G1 F1800 X60.84 Y64.422 E20.14593
G1 X60.959 Y63.855 E20.15683
G1 X61.155 Y63.31 E20.16772
G1 X61.424 Y62.797 E20.17862
G1 X61.761 Y62.326 E20.18951
G1 X62.16 Y61.906 E20.20041
G1 X62.613 Y61.544 E20.21132
G1 X63.111 Y61.249 E20.2222
G1 X63.645 Y61.024 E20.2331
G1 X64.205 Y60.876 E20.244
G1 X65 Y60.8 E20.25902
G1 X85 Y60.8 E20.63523
G1 X85.578 Y60.84 E20.64613
G1 X86.145 Y60.959 E20.65703
G1 X86.69 Y61.155 E20.66792
G1 X87.203 Y61.424 E20.67882
G1 X87.674 Y61.761 E20.68971
G1 X88.094 Y62.16 E20.70061
G1 X88.456 Y62.613 E20.71152
G1 X88.751 Y63.111 E20.72241
G1 X88.976 Y63.645 E20.73331
G1 X89.124 Y64.205 E20.7442
G1 X89.2 Y65 E20.75923
G1 X89.2 Y85 E21.13544
G1 X89.16 Y85.578 E21.14634
G1 X89.041 Y86.145 E21.15723
G1 X88.845 Y86.69 E21.16813
G1 X88.576 Y87.203 E21.17902
