ITMORobotics/yobot_simplecontrol/trajectories/youbot_tr_0.8.csv
q1,q2,q3,q4,q5,dq1,dq2,dq3,dq4,dq5
4.3171,1.301,-0.34907,0.2931,5.585,-0.0039539,0.003303,-0.0035956,0.00019569,-0.0034371
4.3171,1.301,-0.34909,0.29311,5.585,-0.0049834,0.005232,-0.006675,0.0041242,-0.0051065
4.3171,1.3011,-0.34912,0.29313,5.585,-0.0060155,0.0071496,-0.0097521,0.0080525,-0.0067774
4.3171,1.3011,-0.34917,0.29317,5.585,-0.0070502,0.0090554,-0.012827,0.011981,-0.0084498
4.317,1.3011,-0.34922,0.29323,5.5849,-0.0080875,0.010949,-0.015899,0.015909,-0.010124
4.317,1.3012,-0.34929,0.2933,5.5849,-0.0091274,0.012832,-0.018969,0.019836,-0.011799
4.317,1.3012,-0.34938,0.29339,5.5848,-0.01017,0.014702,-0.022036,0.023764,-0.013475
4.3169,1.3013,-0.34947,0.29349,5.5848,-0.011215,0.01656,-0.025101,0.027691,-0.015153
4.3169,1.3014,-0.34958,0.29361,5.5847,-0.012263,0.018407,-0.028163,0.031618,-0.016833
4.3168,1.3014,-0.34969,0.29374,5.5846,-0.013313,0.020241,-0.031222,0.035544,-0.018513
4.3168,1.3015,-0.34983,0.29389,5.5846,-0.014366,0.022063,-0.034279,0.03947,-0.020195
4.3167,1.3016,-0.34997,0.29406,5.5845,-0.015421,0.023872,-0.037333,0.043395,-0.021879
4.3166,1.3017,-0.35012,0.29424,5.5844,-0.016479,0.025669,-0.040385,0.04732,-0.023564
4.3166,1.3018,-0.35029,0.29444,5.5843,-0.017539,0.027454,-0.043434,0.051244,-0.02525
4.3165,1.3019,-0.35047,0.29465,5.5842,-0.018602,0.029226,-0.04648,0.055168,-0.026937
4.3164,1.3021,-0.35066,0.29488,5.5841,-0.019668,0.030986,-0.049523,0.05909,-0.028626
4.3164,1.3022,-0.35087,0.29512,5.584,-0.020736,0.032733,-0.052564,0.063013,-0.030316
4.3163,1.3023,-0.35108,0.29538,5.5838,-0.021807,0.034467,-0.055602,0.066934,-0.032008
4.3162,1.3025,-0.35131,0.29566,5.5837,-0.02288,0.036189,-0.058637,0.070854,-0.033701
4.3161,1.3026,-0.35155,0.29595,5.5836,-0.023955,0.037897,-0.061669,0.074774,-0.035395
4.316,1.3028,-0.35181,0.29626,5.5834,-0.025033,0.039593,-0.064698,0.078693,-0.03709
4.3159,1.3029,-0.35207,0.29658,5.5833,-0.026114,0.041275,-0.067724,0.082611,-0.038787
4.3158,1.3031,-0.35235,0.29692,5.5831,-0.027197,0.042945,-0.070747,0.086528,-0.040485
4.3157,1.3033,-0.35264,0.29727,5.5829,-0.028282,0.044601,-0.073767,0.090443,-0.042185
4.3155,1.3035,-0.35294,0.29764,5.5828,-0.02937,0.046244,-0.076784,0.094358,-0.043885
4.3154,1.3036,-0.35325,0.29803,5.5826,-0.03046,0.047874,-0.079798,0.098272,-0.045587
4.3153,1.3038,-0.35358,0.29843,5.5824,-0.031553,0.04949,-0.082808,0.10218,-0.04729
4.3152,1.304,-0.35391,0.29884,5.5822,-0.032649,0.051093,-0.085816,0.1061,-0.048995
4.315,1.3042,-0.35426,0.29928,5.582,-0.033746,0.052683,-0.088821,0.11001,-0.0507
4.3149,1.3045,-0.35462,0.29972,5.5818,-0.034846,0.054259,-0.091822,0.11391,-0.052407
4.3148,1.3047,-0.355,0.30019,5.5816,-0.035949,0.055822,-0.09482,0.11782,-0.054115
4.3146,1.3049,-0.35538,0.30067,5.5814,-0.037054,0.057371,-0.097815,0.12173,-0.055825
4.3145,1.3051,-0.35578,0.30116,5.5812,-0.038161,0.058906,-0.10081,0.12563,-0.057535
4.3143,1.3054,-0.35619,0.30167,5.5809,-0.039271,0.060427,-0.10379,0.12954,-0.059247
4.3142,1.3056,-0.35661,0.3022,5.5807,-0.040383,0.061935,-0.10678,0.13344,-0.06096
4.314,1.3059,-0.35704,0.30274,5.5804,-0.041498,0.063429,-0.10976,0.13734,-0.062674
4.3138,1.3061,-0.35749,0.3033,5.5802,-0.042615,0.064909,-0.11274,0.14124,-0.064389
4.3137,1.3064,-0.35795,0.30387,5.5799,-0.043734,0.066374,-0.11571,0.14513,-0.066106
4.3135,1.3067,-0.35841,0.30446,5.5796,-0.044856,0.067826,-0.11868,0.14903,-0.067824
4.3133,1.3069,-0.3589,0.30506,5.5794,-0.04598,0.069264,-0.12165,0.15292,-0.069543
4.3131,1.3072,-0.35939,0.30568,5.5791,-0.047106,0.070688,-0.12462,0.15681,-0.071263
4.3129,1.3075,-0.35989,0.30632,5.5788,-0.048235,0.072097,-0.12758,0.1607,-0.072984
4.3127,1.3078,-0.36041,0.30697,5.5785,-0.049366,0.073493,-0.13053,0.16459,-0.074706
4.3125,1.3081,-0.36094,0.30763,5.5782,-0.050499,0.074874,-0.13349,0.16848,-0.07643
4.3123,1.3084,-0.36148,0.30831,5.5779,-0.051635,0.076241,-0.13644,0.17236,-0.078154
4.3121,1.3087,-0.36203,0.30901,5.5776,-0.052773,0.077593,-0.13938,0.17625,-0.07988
4.3119,1.309,-0.36259,0.30972,5.5773,-0.053913,0.078931,-0.14233,0.18013,-0.081607
4.3117,1.3093,-0.36317,0.31045,5.5769,-0.055056,0.080255,-0.14526,0.18401,-0.083335
4.3115,1.3097,-0.36375,0.3112,5.5766,-0.0562,0.081564,-0.1482,0.18788,-0.085064
4.3112,1.31,-0.36435,0.31196,5.5762,-0.057348,0.082859,-0.15113,0.19176,-0.086794
4.311,1.3103,-0.36496,0.31273,5.5759,-0.058497,0.084139,-0.15406,0.19563,-0.088525
4.3108,1.3107,-0.36558,0.31352,5.5755,-0.059649,0.085404,-0.15698,0.1995,-0.090258
4.3105,1.311,-0.36622,0.31433,5.5752,-0.060802,0.086655,-0.1599,0.20337,-0.091991
4.3103,1.3113,-0.36686,0.31515,5.5748,-0.061959,0.087891,-0.16282,0.20723,-0.093726
4.31,1.3117,-0.36752,0.31598,5.5744,-0.063117,0.089112,-0.16573,0.21109,-0.095461
4.3098,1.3121,-0.36819,0.31684,5.574,-0.064278,0.090319,-0.16863,0.21495,-0.097198
4.3095,1.3124,-0.36887,0.3177,5.5736,-0.06544,0.091511,-0.17154,0.21881,-0.098935
4.3092,1.3128,-0.36956,0.31859,5.5732,-0.066605,0.092688,-0.17444,0.22267,-0.10067
4.309,1.3132,-0.37027,0.31949,5.5728,-0.067773,0.093851,-0.17733,0.22652,-0.10241
4.3087,1.3135,-0.37098,0.3204,5.5724,-0.068942,0.094998,-0.18022,0.23037,-0.10415
4.3084,1.3139,-0.37171,0.32133,5.572,-0.070114,0.09613,-0.18311,0.23422,-0.1059
4.3081,1.3143,-0.37245,0.32227,5.5716,-0.071288,0.097248,-0.186,0.23806,-0.10764
4.3079,1.3147,-0.37319,0.32323,5.5711,-0.072464,0.098351,-0.18887,0.24191,-0.10938
4.3076,1.3151,-0.37396,0.32421,5.5707,-0.073642,0.099438,-0.19175,0.24575,-0.11113
4.3073,1.3155,-0.37473,0.3252,5.5703,-0.074822,0.10051,-0.19462,0.24958,-0.11287
4.307,1.3159,-0.37551,0.3262,5.5698,-0.076004,0.10157,-0.19749,0.25342,-0.11462
4.3067,1.3163,-0.37631,0.32723,5.5693,-0.077189,0.10261,-0.20035,0.25725,-0.11637
4.3063,1.3167,-0.37712,0.32826,5.5689,-0.078376,0.10364,-0.20321,0.26108,-0.11812
4.306,1.3171,-0.37793,0.32931,5.5684,-0.079565,0.10465,-0.20606,0.26491,-0.11987
4.3057,1.3176,-0.37876,0.33038,5.5679,-0.080756,0.10565,-0.20891,0.26873,-0.12162
4.3054,1.318,-0.37961,0.33146,5.5674,-0.081949,0.10663,-0.21175,0.27255,-0.12337
4.3051,1.3184,-0.38046,0.33256,5.5669,-0.083144,0.1076,-0.21459,0.27636,-0.12512
4.3047,1.3188,-0.38132,0.33368,5.5664,-0.084341,0.10855,-0.21743,0.28018,-0.12687
4.3044,1.3193,-0.3822,0.3348,5.5659,-0.08554,0.10948,-0.22026,0.28399,-0.12863
4.304,1.3197,-0.38308,0.33595,5.5654,-0.086742,0.11041,-0.22309,0.2878,-0.13038
4.3037,1.3202,-0.38398,0.33711,5.5649,-0.087945,0.11131,-0.22591,0.2916,-0.13214
4.3033,1.3206,-0.38489,0.33828,5.5643,-0.089151,0.1122,-0.22873,0.2954,-0.1339
4.303,1.3211,-0.38581,0.33947,5.5638,-0.090358,0.11308,-0.23154,0.2992,-0.13565
4.3026,1.3215,-0.38674,0.34067,5.5633,-0.091568,0.11394,-0.23435,0.30299,-0.13741
4.3022,1.322,-0.38769,0.34189,5.5627,-0.09278,0.11478,-0.23715,0.30678,-0.13917
4.3019,1.3224,-0.38864,0.34313,5.5621,-0.093993,0.11561,-0.23995,0.31057,-0.14093
4.3015,1.3229,-0.38961,0.34438,5.5616,-0.095209,0.11643,-0.24275,0.31436,-0.14269
4.3011,1.3234,-0.39058,0.34564,5.561,-0.096427,0.11723,-0.24554,0.31814,-0.14446
4.3007,1.3238,-0.39157,0.34692,5.5604,-0.097647,0.11801,-0.24832,0.32191,-0.14622
4.3003,1.3243,-0.39257,0.34822,5.5598,-0.098868,0.11878,-0.2511,0.32569,-0.14798
4.2999,1.3248,-0.39358,0.34953,5.5592,-0.10009,0.11953,-0.25388,0.32946,-0.14975
4.2995,1.3253,-0.3946,0.35085,5.5586,-0.10132,0.12027,-0.25665,0.33322,-0.15151
4.2991,1.3258,-0.39563,0.35219,5.558,-0.10255,0.12099,-0.25941,0.33698,-0.15328
4.2987,1.3262,-0.39668,0.35355,5.5574,-0.10377,0.1217,-0.26217,0.34074,-0.15505
4.2983,1.3267,-0.39773,0.35492,5.5568,-0.10501,0.12239,-0.26493,0.3445,-0.15682
4.2979,1.3272,-0.3988,0.35631,5.5561,-0.10624,0.12306,-0.26768,0.34825,-0.15858
4.2974,1.3277,-0.39987,0.35771,5.5555,-0.10748,0.12372,-0.27043,0.35199,-0.16035
4.297,1.3282,-0.40096,0.35912,5.5549,-0.10871,0.12437,-0.27317,0.35574,-0.16212
4.2966,1.3287,-0.40206,0.36055,5.5542,-0.10995,0.125,-0.2759,0.35948,-0.1639
4.2961,1.3292,-0.40317,0.362,5.5536,-0.11119,0.12561,-0.27863,0.36321,-0.16567
4.2957,1.3297,-0.40429,0.36346,5.5529,-0.11244,0.12621,-0.28136,0.36694,-0.16744
4.2952,1.3302,-0.40542,0.36493,5.5522,-0.11368,0.1268,-0.28408,0.37067,-0.16921
4.2948,1.3307,-0.40656,0.36642,5.5515,-0.11493,0.12737,-0.2868,0.37439,-0.17099
4.2943,1.3312,-0.40771,0.36793,5.5508,-0.11618,0.12792,-0.28951,0.37811,-0.17276
4.2938,1.3317,-0.40887,0.36945,5.5502,-0.11743,0.12846,-0.29221,0.38183,-0.17454
4.2934,1.3323,-0.41005,0.37098,5.5495,-0.11868,0.12898,-0.29491,0.38554,-0.17631
4.2929,1.3328,-0.41123,0.37253,5.5487,-0.11993,0.12949,-0.29761,0.38924,-0.17809
4.2924,1.3333,-0.41243,0.3741,5.548,-0.12119,0.12998,-0.3003,0.39295,-0.17987
4.2919,1.3338,-0.41364,0.37568,5.5473,-0.12245,0.13045,-0.30298,0.39664,-0.18165
4.2914,1.3343,-0.41485,0.37727,5.5466,-0.12371,0.13092,-0.30566,0.40034,-0.18343
4.2909,1.3349,-0.41608,0.37888,5.5458,-0.12497,0.13136,-0.30833,0.40402,-0.18521
4.2904,1.3354,-0.41732,0.3805,5.5451,-0.12623,0.13179,-0.311,0.40771,-0.18699
4.2899,1.3359,-0.41857,0.38214,5.5443,-0.1275,0.13221,-0.31366,0.41139,-0.18877
4.2894,1.3364,-0.41983,0.38379,5.5436,-0.12876,0.13261,-0.31632,0.41506,-0.19055
4.2889,1.337,-0.4211,0.38546,5.5428,-0.13003,0.13299,-0.31897,0.41873,-0.19233
4.2884,1.3375,-0.42238,0.38714,5.542,-0.1313,0.13336,-0.32162,0.4224,-0.19412
4.2878,1.338,-0.42367,0.38884,5.5413,-0.13258,0.13372,-0.32426,0.42606,-0.1959
4.2873,1.3386,-0.42498,0.39055,5.5405,-0.13385,0.13406,-0.32689,0.42972,-0.19768
4.2868,1.3391,-0.42629,0.39228,5.5397,-0.13512,0.13438,-0.32952,0.43337,-0.19947
4.2862,1.3397,-0.42761,0.39402,5.5389,-0.1364,0.13469,-0.33215,0.43702,-0.20125
4.2857,1.3402,-0.42895,0.39577,5.5381,-0.13768,0.13498,-0.33477,0.44066,-0.20304
4.2851,1.3407,-0.43029,0.39754,5.5373,-0.13896,0.13526,-0.33738,0.4443,-0.20483
4.2846,1.3413,-0.43164,0.39933,5.5364,-0.14024,0.13553,-0.33999,0.44793,-0.20661
4.284,1.3418,-0.43301,0.40113,5.5356,-0.14153,0.13577,-0.34259,0.45155,-0.2084
4.2834,1.3424,-0.43439,0.40294,5.5348,-0.14281,0.13601,-0.34518,0.45518,-0.21019
4.2829,1.3429,-0.43577,0.40477,5.5339,-0.1441,0.13623,-0.34777,0.45879,-0.21198
4.2823,1.3435,-0.43717,0.40661,5.5331,-0.14539,0.13643,-0.35036,0.46241,-0.21377
4.2817,1.344,-0.43857,0.40847,5.5322,-0.14668,0.13662,-0.35294,0.46601,-0.21556
4.2811,1.3445,-0.43999,0.41034,5.5313,-0.14797,0.13679,-0.35551,0.46962,-0.21735
4.2805,1.3451,-0.44142,0.41222,5.5305,-0.14927,0.13695,-0.35808,0.47321,-0.21914
4.2799,1.3456,-0.44286,0.41412,5.5296,-0.15056,0.1371,-0.36064,0.4768,-0.22093
4.2793,1.3462,-0.4443,0.41604,5.5287,-0.15186,0.13723,-0.36319,0.48039,-0.22272
4.2787,1.3467,-0.44576,0.41797,5.5278,-0.15316,0.13734,-0.36574,0.48397,-0.22452
4.2781,1.3473,-0.44723,0.41991,5.5269,-0.15446,0.13744,-0.36829,0.48755,-0.22631
4.2775,1.3478,-0.44871,0.42187,5.526,-0.15576,0.13753,-0.37082,0.49112,-0.2281
4.2768,1.3484,-0.4502,0.42384,5.5251,-0.15707,0.1376,-0.37335,0.49468,-0.2299
4.2762,1.3489,-0.45169,0.42583,5.5242,-0.15837,0.13765,-0.37588,0.49824,-0.23169
4.2756,1.3495,-0.4532,0.42783,5.5232,-0.15968,0.1377,-0.3784,0.5018,-0.23349
4.2749,1.35,-0.45472,0.42984,5.5223,-0.16099,0.13772,-0.38091,0.50534,-0.23528
4.2743,1.3506,-0.45625,0.43187,5.5213,-0.1623,0.13773,-0.38342,0.50889,-0.23708
4.2736,1.3511,-0.45779,0.43391,5.5204,-0.16361,0.13773,-0.38592,0.51242,-0.23888
4.273,1.3517,-0.45934,0.43597,5.5194,-0.16492,0.13772,-0.38842,0.51596,-0.24067
4.2723,1.3522,-0.4609,0.43804,5.5185,-0.16624,0.13768,-0.39091,0.51948,-0.24247
4.2716,1.3528,-0.46246,0.44012,5.5175,-0.16755,0.13764,-0.39339,0.523,-0.24427
4.271,1.3533,-0.46404,0.44222,5.5165,-0.16887,0.13758,-0.39586,0.52652,-0.24607
4.2703,1.3539,-0.46563,0.44434,5.5155,-0.17019,0.1375,-0.39833,0.53003,-0.24787
4.2696,1.3544,-0.46723,0.44646,5.5145,-0.17151,0.13742,-0.4008,0.53353,-0.24967
4.2689,1.355,-0.46884,0.4486,5.5135,-0.17283,0.13731,-0.40326,0.53703,-0.25147
4.2682,1.3555,-0.47046,0.45076,5.5125,-0.17416,0.1372,-0.40571,0.54052,-0.25327
4.2675,1.3561,-0.47208,0.45293,5.5115,-0.17548,0.13707,-0.40815,0.544,-0.25507
4.2668,1.3566,-0.47372,0.45511,5.5105,-0.17681,0.13692,-0.41059,0.54748,-0.25687
4.2661,1.3572,-0.47537,0.45731,5.5095,-0.17813,0.13676,-0.41302,0.55095,-0.25867
4.2654,1.3577,-0.47703,0.45952,5.5084,-0.17946,0.13659,-0.41545,0.55442,-0.26047
4.2647,1.3583,-0.47869,0.46174,5.5074,-0.18079,0.1364,-0.41787,0.55788,-0.26227
4.2639,1.3588,-0.48037,0.46398,5.5063,-0.18213,0.1362,-0.42028,0.56134,-0.26407
4.2632,1.3594,-0.48205,0.46623,5.5053,-0.18346,0.13599,-0.42269,0.56479,-0.26588
4.2625,1.3599,-0.48375,0.4685,5.5042,-0.18479,0.13576,-0.42509,0.56823,-0.26768
4.2617,1.3605,-0.48545,0.47078,5.5031,-0.18613,0.13552,-0.42748,0.57166,-0.26948
4.261,1.361,-0.48717,0.47307,5.502,-0.18747,0.13526,-0.42987,0.57509,-0.27128
4.2602,1.3615,-0.48889,0.47538,5.5009,-0.18881,0.13499,-0.43225,0.57852,-0.27309
4.2595,1.3621,-0.49063,0.4777,5.4998,-0.19015,0.13471,-0.43463,0.58194,-0.27489
4.2587,1.3626,-0.49237,0.48004,5.4987,-0.19149,0.13442,-0.43699,0.58535,-0.2767
4.2579,1.3632,-0.49412,0.48238,5.4976,-0.19283,0.13411,-0.43936,0.58875,-0.2785
4.2572,1.3637,-0.49589,0.48475,5.4965,-0.19417,0.13378,-0.44171,0.59215,-0.28031
4.2564,1.3642,-0.49766,0.48712,5.4954,-0.19552,0.13345,-0.44406,0.59554,-0.28211
4.2556,1.3648,-0.49944,0.48951,5.4943,-0.19687,0.1331,-0.4464,0.59893,-0.28392
4.2548,1.3653,-0.50123,0.49191,5.4931,-0.19821,0.13274,-0.44873,0.6023,-0.28572
4.254,1.3658,-0.50303,0.49433,5.492,-0.19956,0.13236,-0.45106,0.60568,-0.28753
4.2532,1.3663,-0.50484,0.49676,5.4908,-0.20091,0.13197,-0.45338,0.60904,-0.28933
4.2524,1.3669,-0.50666,0.4992,5.4897,-0.20227,0.13157,-0.45569,0.6124,-0.29114
4.2516,1.3674,-0.50848,0.50166,5.4885,-0.20362,0.13116,-0.458,0.61575,-0.29295
4.2508,1.3679,-0.51032,0.50413,5.4873,-0.20497,0.13073,-0.4603,0.6191,-0.29475
4.25,1.3684,-0.51216,0.50661,5.4861,-0.20633,0.13029,-0.4626,0.62243,-0.29656
4.2491,1.369,-0.51402,0.50911,5.4849,-0.20769,0.12983,-0.46488,0.62577,-0.29837
4.2483,1.3695,-0.51588,0.51162,5.4837,-0.20904,0.12937,-0.46716,0.62909,-0.30018
4.2475,1.37,-0.51776,0.51414,5.4825,-0.2104,0.12889,-0.46944,0.63241,-0.30198
4.2466,1.3705,-0.51964,0.51668,5.4813,-0.21176,0.1284,-0.4717,0.63572,-0.30379
4.2458,1.371,-0.52153,0.51923,5.4801,-0.21312,0.1279,-0.47396,0.63902,-0.3056
4.2449,1.3715,-0.52343,0.52179,5.4789,-0.21449,0.12738,-0.47621,0.64232,-0.30741
4.2441,1.372,-0.52534,0.52436,5.4777,-0.21585,0.12685,-0.47846,0.64561,-0.30921
4.2432,1.3726,-0.52726,0.52695,5.4764,-0.21722,0.12631,-0.4807,0.64889,-0.31102
4.2423,1.3731,-0.52919,0.52955,5.4752,-0.21858,0.12576,-0.48293,0.65217,-0.31283
4.2414,1.3736,-0.53112,0.53217,5.4739,-0.21995,0.12519,-0.48515,0.65544,-0.31464
4.2406,1.3741,-0.53307,0.5348,5.4726,-0.22132,0.12462,-0.48737,0.6587,-0.31645
4.2397,1.3746,-0.53502,0.53744,5.4714,-0.22269,0.12403,-0.48958,0.66195,-0.31826
4.2388,1.3751,-0.53698,0.54009,5.4701,-0.22406,0.12343,-0.49178,0.6652,-0.32007
4.2379,1.3755,-0.53896,0.54276,5.4688,-0.22543,0.12281,-0.49398,0.66844,-0.32187
4.237,1.376,-0.54094,0.54544,5.4675,-0.2268,0.12219,-0.49617,0.67167,-0.32368
4.2361,1.3765,-0.54292,0.54813,5.4662,-0.22817,0.12155,-0.49835,0.6749,-0.32549
4.2351,1.377,-0.54492,0.55084,5.4649,-0.22955,0.12091,-0.50052,0.67811,-0.3273
4.2342,1.3775,-0.54693,0.55356,5.4636,-0.23092,0.12025,-0.50269,0.68132,-0.32911
4.2333,1.378,-0.54894,0.55629,5.4623,-0.2323,0.11958,-0.50485,0.68453,-0.33092
4.2324,1.3784,-0.55097,0.55904,5.461,-0.23368,0.11889,-0.507,0.68772,-0.33273
4.2314,1.3789,-0.553,0.56179,5.4596,-0.23506,0.1182,-0.50915,0.69091,-0.33454
4.2305,1.3794,-0.55504,0.56456,5.4583,-0.23644,0.1175,-0.51128,0.69409,-0.33635
4.2295,1.3799,-0.55709,0.56735,5.4569,-0.23782,0.11678,-0.51341,0.69726,-0.33816
4.2286,1.3803,-0.55915,0.57014,5.4556,-0.2392,0.11605,-0.51554,0.70043,-0.33997
4.2276,1.3808,-0.56121,0.57295,5.4542,-0.24058,0.11532,-0.51765,0.70359,-0.34178
4.2267,1.3812,-0.56329,0.57577,5.4528,-0.24197,0.11457,-0.51976,0.70674,-0.34359
4.2257,1.3817,-0.56537,0.5786,5.4515,-0.24335,0.11381,-0.52186,0.70988,-0.3454
4.2247,1.3822,-0.56746,0.58145,5.4501,-0.24474,0.11304,-0.52396,0.71301,-0.34721
4.2237,1.3826,-0.56956,0.58431,5.4487,-0.24612,0.11226,-0.52604,0.71614,-0.34902
4.2227,1.3831,-0.57167,0.58718,5.4473,-0.24751,0.11146,-0.52812,0.71926,-0.35082
4.2218,1.3835,-0.57379,0.59006,5.4459,-0.2489,0.11066,-0.53019,0.72237,-0.35263
4.2208,1.3839,-0.57591,0.59296,5.4445,-0.25029,0.10985,-0.53226,0.72547,-0.35444
4.2197,1.3844,-0.57805,0.59586,5.443,-0.25168,0.10903,-0.53431,0.72857,-0.35625
4.2187,1.3848,-0.58019,0.59879,5.4416,-0.25307,0.10819,-0.53636,0.73165,-0.35806
4.2177,1.3852,-0.58234,0.60172,5.4402,-0.25446,0.10735,-0.5384,0.73473,-0.35987
4.2167,1.3857,-0.5845,0.60466,5.4387,-0.25585,0.1065,-0.54044,0.7378,-0.36168
4.2157,1.3861,-0.58666,0.60762,5.4373,-0.25725,0.10563,-0.54246,0.74087,-0.36349
4.2146,1.3865,-0.58884,0.61059,5.4358,-0.25864,0.10476,-0.54448,0.74392,-0.3653
4.2136,1.3869,-0.59102,0.61357,5.4344,-0.26004,0.10388,-0.54649,0.74697,-0.36711
4.2126,1.3873,-0.59321,0.61657,5.4329,-0.26143,0.10298,-0.5485,0.75001,-0.36892
4.2115,1.3878,-0.59541,0.61957,5.4314,-0.26283,0.10208,-0.55049,0.75304,-0.37072
4.2105,1.3882,-0.59761,0.62259,5.4299,-0.26423,0.10117,-0.55248,0.75606,-0.37253
4.2094,1.3886,-0.59983,0.62562,5.4284,-0.26563,0.10025,-0.55446,0.75908,-0.37434
4.2083,1.389,-0.60205,0.62866,5.4269,-0.26703,0.099318,-0.55643,0.76208,-0.37615
4.2073,1.3894,-0.60428,0.63172,5.4254,-0.26843,0.098378,-0.5584,0.76508,-0.37796
4.2062,1.3898,-0.60651,0.63478,5.4239,-0.26983,0.097429,-0.56035,0.76807,-0.37976
4.2051,1.3901,-0.60876,0.63786,5.4224,-0.27123,0.096471,-0.5623,0.77105,-0.38157
4.204,1.3905,-0.61101,0.64095,5.4209,-0.27263,0.095504,-0.56425,0.77402,-0.38338
4.2029,1.3909,-0.61327,0.64405,5.4193,-0.27403,0.094528,-0.56618,0.77699,-0.38519
4.2018,1.3913,-0.61554,0.64717,5.4178,-0.27544,0.093543,-0.5681,0.77994,-0.38699
4.2007,1.3917,-0.61782,0.65029,5.4162,-0.27684,0.092549,-0.57002,0.78289,-0.3888
4.1996,1.392,-0.6201,0.65343,5.4147,-0.27825,0.091547,-0.57193,0.78583,-0.39061
4.1985,1.3924,-0.62239,0.65658,5.4131,-0.27965,0.090537,-0.57384,0.78876,-0.39241
4.1974,1.3927,-0.62469,0.65974,5.4115,-0.28106,0.089517,-0.57573,0.79168,-0.39422
4.1962,1.3931,-0.627,0.66291,5.4099,-0.28246,0.08849,-0.57762,0.79459,-0.39603
4.1951,1.3935,-0.62931,0.6661,5.4084,-0.28387,0.087454,-0.5795,0.7975,-0.39783
4.194,1.3938,-0.63164,0.66929,5.4068,-0.28528,0.08641,-0.58137,0.80039,-0.39964
4.1928,1.3941,-0.63396,0.6725,5.4052,-0.28669,0.085359,-0.58323,0.80328,-0.40144
4.1917,1.3945,-0.6363,0.67572,5.4036,-0.2881,0.084299,-0.58508,0.80616,-0.40325
4.1905,1.3948,-0.63865,0.67895,5.4019,-0.28951,0.083231,-0.58693,0.80903,-0.40505
4.1894,1.3952,-0.641,0.68219,5.4003,-0.29092,0.082156,-0.58877,0.81189,-0.40686
4.1882,1.3955,-0.64336,0.68545,5.3987,-0.29233,0.081073,-0.5906,0.81474,-0.40866
4.187,1.3958,-0.64572,0.68871,5.397,-0.29374,0.079982,-0.59242,0.81759,-0.41047
4.1859,1.3961,-0.64809,0.69199,5.3954,-0.29516,0.078884,-0.59424,0.82042,-0.41227
4.1847,1.3964,-0.65048,0.69527,5.3937,-0.29657,0.077779,-0.59604,0.82325,-0.41407
4.1835,1.3967,-0.65286,0.69857,5.3921,-0.29798,0.076666,-0.59784,0.82606,-0.41588
4.1823,1.397,-0.65526,0.70188,5.3904,-0.2994,0.075546,-0.59963,0.82887,-0.41768
4.1811,1.3973,-0.65766,0.7052,5.3887,-0.30081,0.074419,-0.60142,0.83167,-0.41948
4.1799,1.3976,-0.66007,0.70853,5.3871,-0.30223,0.073286,-0.60319,0.83446,-0.42128
4.1787,1.3979,-0.66249,0.71188,5.3854,-0.30364,0.072145,-0.60496,0.83724,-0.42308
4.1774,1.3982,-0.66491,0.71523,5.3837,-0.30506,0.070997,-0.60671,0.84001,-0.42489
4.1762,1.3985,-0.66734,0.7186,5.382,-0.30647,0.069843,-0.60846,0.84277,-0.42669
4.175,1.3988,-0.66978,0.72197,5.3803,-0.30789,0.068683,-0.6102,0.84553,-0.42849
4.1738,1.399,-0.67222,0.72536,5.3785,-0.30931,0.067516,-0.61194,0.84827,-0.43029
4.1725,1.3993,-0.67467,0.72876,5.3768,-0.31073,0.066343,-0.61366,0.851,-0.43209
4.1713,1.3996,-0.67713,0.73217,5.3751,-0.31214,0.065163,-0.61538,0.85373,-0.43389
4.17,1.3998,-0.6796,0.73559,5.3733,-0.31356,0.063977,-0.61709,0.85645,-0.43569
4.1688,1.4001,-0.68207,0.73902,5.3716,-0.31498,0.062785,-0.61879,0.85915,-0.43748
4.1675,1.4003,-0.68455,0.74246,5.3698,-0.3164,0.061588,-0.62048,0.86185,-0.43928
4.1662,1.4006,-0.68703,0.74592,5.3681,-0.31782,0.060384,-0.62216,0.86454,-0.44108
4.165,1.4008,-0.68952,0.74938,5.3663,-0.31924,0.059175,-0.62384,0.86722,-0.44288
4.1637,1.4011,-0.69202,0.75285,5.3645,-0.32066,0.05796,-0.62551,0.86989,-0.44468
4.1624,1.4013,-0.69453,0.75634,5.3628,-0.32208,0.05674,-0.62717,0.87255,-0.44647
4.1611,1.4015,-0.69704,0.75984,5.361,-0.3235,0.055514,-0.62882,0.8752,-0.44827
4.1598,1.4017,-0.69956,0.76334,5.3592,-0.32493,0.054283,-0.63046,0.87784,-0.45006
4.1585,1.4019,-0.70208,0.76686,5.3574,-0.32635,0.053047,-0.63209,0.88047,-0.45186
4.1572,1.4022,-0.70461,0.77038,5.3556,-0.32777,0.051806,-0.63372,0.8831,-0.45365
4.1559,1.4024,-0.70715,0.77392,5.3537,-0.32919,0.050559,-0.63533,0.88571,-0.45545
4.1546,1.4026,-0.7097,0.77747,5.3519,-0.33062,0.049308,-0.63694,0.88831,-0.45724
4.1532,1.4028,-0.71225,0.78103,5.3501,-0.33204,0.048052,-0.63854,0.89091,-0.45903
4.1519,1.4029,-0.71481,0.7846,5.3482,-0.33346,0.046792,-0.64013,0.89349,-0.46083
4.1506,1.4031,-0.71737,0.78818,5.3464,-0.33489,0.045527,-0.64172,0.89607,-0.46262
4.1492,1.4033,-0.71994,0.79177,5.3445,-0.33631,0.044257,-0.64329,0.89863,-0.46441
4.1479,1.4035,-0.72252,0.79537,5.3427,-0.33773,0.042983,-0.64486,0.90119,-0.4662
4.1465,1.4037,-0.7251,0.79898,5.3408,-0.33916,0.041705,-0.64641,0.90373,-0.46799
4.1452,1.4038,-0.72769,0.8026,5.3389,-0.34058,0.040423,-0.64796,0.90627,-0.46978
4.1438,1.404,-0.73028,0.80623,5.3371,-0.34201,0.039136,-0.6495,0.90879,-0.47157
4.1424,1.4041,-0.73288,0.80987,5.3352,-0.34343,0.037846,-0.65103,0.91131,-0.47336
4.1411,1.4043,-0.73549,0.81352,5.3333,-0.34486,0.036552,-0.65256,0.91382,-0.47515
4.1397,1.4044,-0.7381,0.81718,5.3314,-0.34628,0.035254,-0.65407,0.91631,-0.47694
4.1383,1.4046,-0.74072,0.82085,5.3295,-0.34771,0.033953,-0.65558,0.9188,-0.47872
4.1369,1.4047,-0.74335,0.82453,5.3275,-0.34913,0.032648,-0.65708,0.92128,-0.48051
4.1355,1.4048,-0.74598,0.82822,5.3256,-0.35056,0.03134,-0.65856,0.92374,-0.4823
4.1341,1.4049,-0.74862,0.83192,5.3237,-0.35199,0.030029,-0.66005,0.9262,-0.48408
4.1327,1.4051,-0.75126,0.83563,5.3217,-0.35341,0.028714,-0.66152,0.92865,-0.48587
4.1313,1.4052,-0.75391,0.83935,5.3198,-0.35484,0.027397,-0.66298,0.93108,-0.48765
4.1298,1.4053,-0.75656,0.84308,5.3178,-0.35626,0.026076,-0.66443,0.93351,-0.48943
4.1284,1.4054,-0.75922,0.84681,5.3159,-0.35769,0.024753,-0.66588,0.93593,-0.49122
4.127,1.4055,-0.76189,0.85056,5.3139,-0.35912,0.023427,-0.66732,0.93833,-0.493
4.1255,1.4056,-0.76456,0.85432,5.3119,-0.36054,0.022098,-0.66874,0.94073,-0.49478
4.1241,1.4057,-0.76724,0.85809,5.3099,-0.36197,0.020767,-0.67016,0.94312,-0.49656
4.1226,1.4057,-0.76992,0.86187,5.308,-0.3634,0.019433,-0.67158,0.94549,-0.49834
4.1212,1.4058,-0.77261,0.86565,5.306,-0.36482,0.018097,-0.67298,0.94786,-0.50012
4.1197,1.4059,-0.77531,0.86945,5.304,-0.36625,0.016759,-0.67437,0.95022,-0.5019
4.1183,1.4059,-0.77801,0.87325,5.3019,-0.36768,0.015419,-0.67575,0.95256,-0.50368
4.1168,1.406,-0.78071,0.87707,5.2999,-0.3691,0.014077,-0.67713,0.9549,-0.50545
4.1153,1.4061,-0.78342,0.88089,5.2979,-0.37053,0.012733,-0.6785,0.95722,-0.50723
4.1138,1.4061,-0.78614,0.88473,5.2959,-0.37195,0.011387,-0.67986,0.95954,-0.50901
4.1123,1.4061,-0.78886,0.88857,5.2938,-0.37338,0.01004,-0.68121,0.96184,-0.51078
4.1108,1.4062,-0.79159,0.89242,5.2918,-0.37481,0.0086913,-0.68255,0.96414,-0.51256
4.1093,1.4062,-0.79432,0.89628,5.2897,-0.37623,0.0073411,-0.68388,0.96642,-0.51433
4.1078,1.4062,-0.79706,0.90015,5.2877,-0.37766,0.0059895,-0.6852,0.96869,-0.5161
4.1063,1.4063,-0.79981,0.90403,5.2856,-0.37909,0.0046368,-0.68651,0.97096,-0.51787
4.1048,1.4063,-0.80255,0.90792,5.2835,-0.38051,0.0032829,-0.68782,0.97321,-0.51965
4.1033,1.4063,-0.80531,0.91182,5.2814,-0.38194,0.0019281,-0.68912,0.97545,-0.52142
4.1017,1.4063,-0.80807,0.91572,5.2794,-0.38336,0.00057244,-0.6904,0.97768,-0.52319
4.1002,1.4063,-0.81083,0.91964,5.2773,-0.38479,-0.000784,-0.69168,0.9799,-0.52496
4.0987,1.4063,-0.8136,0.92356,5.2752,-0.38621,-0.0021411,-0.69295,0.98212,-0.52672
4.0971,1.4063,-0.81637,0.9275,5.273,-0.38764,-0.0034987,-0.69421,0.98432,-0.52849
4.0956,1.4063,-0.81915,0.93144,5.2709,-0.38907,-0.0048568,-0.69546,0.98651,-0.53026
4.094,1.4062,-0.82194,0.93539,5.2688,-0.39049,-0.0062152,-0.69671,0.98868,-0.53202
4.0924,1.4062,-0.82473,0.93935,5.2667,-0.39192,-0.0075738,-0.69794,0.99085,-0.53379
4.0909,1.4062,-0.82752,0.94332,5.2645,-0.39334,-0.0089325,-0.69917,0.99301,-0.53555
4.0893,1.4061,-0.83032,0.94729,5.2624,-0.39476,-0.010291,-0.70038,0.99516,-0.53732
4.0877,1.4061,-0.83312,0.95128,5.2602,-0.39619,-0.01165,-0.70159,0.9973,-0.53908
4.0861,1.406,-0.83593,0.95527,5.2581,-0.39761,-0.013008,-0.70279,0.99942,-0.54084
4.0845,1.406,-0.83875,0.95927,5.2559,-0.39904,-0.014366,-0.70398,1.0015,-0.5426
4.0829,1.4059,-0.84157,0.96328,5.2537,-0.40046,-0.015724,-0.70516,1.0036,-0.54436
4.0813,1.4059,-0.84439,0.9673,5.2516,-0.40188,-0.017081,-0.70633,1.0057,-0.54612
4.0797,1.4058,-0.84722,0.97133,5.2494,-0.40331,-0.018438,-0.70749,1.0078,-0.54788
4.0781,1.4057,-0.85005,0.97536,5.2472,-0.40473,-0.019793,-0.70864,1.0099,-0.54963
4.0765,1.4056,-0.85289,0.97941,5.245,-0.40615,-0.021148,-0.70979,1.012,-0.55139
4.0748,1.4056,-0.85573,0.98346,5.2428,-0.40757,-0.022502,-0.71092,1.014,-0.55315
4.0732,1.4055,-0.85857,0.98752,5.2405,-0.40899,-0.023855,-0.71205,1.016,-0.5549
4.0716,1.4054,-0.86142,0.99159,5.2383,-0.41042,-0.025207,-0.71316,1.0181,-0.55665
4.0699,1.4053,-0.86428,0.99566,5.2361,-0.41184,-0.026557,-0.71427,1.0201,-0.55841
4.0683,1.4051,-0.86714,0.99975,5.2339,-0.41326,-0.027906,-0.71537,1.0221,-0.56016
4.0666,1.405,-0.87,1.0038,5.2316,-0.41468,-0.029253,-0.71646,1.0241,-0.56191
4.065,1.4049,-0.87287,1.0079,5.2294,-0.4161,-0.030599,-0.71754,1.0261,-0.56366
4.0633,1.4048,-0.87574,1.012,5.2271,-0.41752,-0.031943,-0.71861,1.0281,-0.56541
4.0616,1.4047,-0.87862,1.0162,5.2248,-0.41894,-0.033286,-0.71968,1.03,-0.56716
4.0599,1.4045,-0.8815,1.0203,5.2226,-0.42035,-0.034626,-0.72073,1.032,-0.5689
4.0583,1.4044,-0.88438,1.0244,5.2203,-0.42177,-0.035964,-0.72177,1.0339,-0.57065
4.0566,1.4042,-0.88727,1.0286,5.218,-0.42319,-0.037301,-0.72281,1.0358,-0.57239
4.0549,1.4041,-0.89017,1.0327,5.2157,-0.42461,-0.038635,-0.72383,1.0378,-0.57414
4.0532,1.4039,-0.89306,1.0369,5.2134,-0.42602,-0.039966,-0.72485,1.0397,-0.57588
4.0515,1.4038,-0.89596,1.041,5.2111,-0.42744,-0.041296,-0.72586,1.0416,-0.57762
4.0497,1.4036,-0.89887,1.0452,5.2088,-0.42886,-0.042622,-0.72686,1.0434,-0.57936
4.048,1.4034,-0.90178,1.0494,5.2065,-0.43027,-0.043946,-0.72785,1.0453,-0.5811
4.0463,1.4032,-0.90469,1.0536,5.2041,-0.43169,-0.045268,-0.72883,1.0472,-0.58284
4.0446,1.4031,-0.90761,1.0577,5.2018,-0.4331,-0.046586,-0.7298,1.049,-0.58458
4.0428,1.4029,-0.91053,1.0619,5.1995,-0.43452,-0.047902,-0.73076,1.0509,-0.58631
4.0411,1.4027,-0.91346,1.0662,5.1971,-0.43593,-0.049214,-0.73171,1.0527,-0.58805
4.0394,1.4025,-0.91638,1.0704,5.1948,-0.43734,-0.050523,-0.73265,1.0545,-0.58978
4.0376,1.4023,-0.91932,1.0746,5.1924,-0.43875,-0.051829,-0.73359,1.0563,-0.59152
4.0358,1.4021,-0.92225,1.0788,5.19,-0.44017,-0.053132,-0.73451,1.0581,-0.59325
4.0341,1.4018,-0.92519,1.0831,5.1876,-0.44158,-0.054431,-0.73543,1.0599,-0.59498
4.0323,1.4016,-0.92814,1.0873,5.1853,-0.44299,-0.055727,-0.73633,1.0617,-0.59671
4.0305,1.4014,-0.93108,1.0916,5.1829,-0.4444,-0.057019,-0.73723,1.0635,-0.59844
4.0288,1.4012,-0.93403,1.0958,5.1805,-0.44581,-0.058307,-0.73812,1.0652,-0.60017
4.027,1.4009,-0.93699,1.1001,5.1781,-0.44722,-0.059591,-0.739,1.0669,-0.60189
4.0252,1.4007,-0.93995,1.1043,5.1757,-0.44862,-0.060871,-0.73987,1.0687,-0.60362
4.0234,1.4004,-0.94291,1.1086,5.1732,-0.45003,-0.062147,-0.74073,1.0704,-0.60534
4.0216,1.4002,-0.94587,1.1129,5.1708,-0.45144,-0.063419,-0.74158,1.0721,-0.60707
4.0198,1.3999,-0.94884,1.1172,5.1684,-0.45284,-0.064687,-0.74242,1.0738,-0.60879
4.018,1.3997,-0.95181,1.1215,5.1659,-0.45425,-0.065951,-0.74325,1.0755,-0.61051
4.0161,1.3994,-0.95479,1.1258,5.1635,-0.45565,-0.06721,-0.74408,1.0771,-0.61223
4.0143,1.3991,-0.95776,1.1301,5.161,-0.45706,-0.068464,-0.74489,1.0788,-0.61395
4.0125,1.3989,-0.96075,1.1344,5.1586,-0.45846,-0.069714,-0.74569,1.0805,-0.61566
4.0106,1.3986,-0.96373,1.1388,5.1561,-0.45986,-0.070959,-0.74649,1.0821,-0.61738
4.0088,1.3983,-0.96672,1.1431,5.1536,-0.46127,-0.072199,-0.74728,1.0837,-0.6191
4.007,1.398,-0.96971,1.1474,5.1512,-0.46267,-0.073434,-0.74805,1.0853,-0.62081
4.0051,1.3977,-0.9727,1.1518,5.1487,-0.46407,-0.074664,-0.74882,1.0869,-0.62252
4.0032,1.3974,-0.9757,1.1561,5.1462,-0.46547,-0.075889,-0.74958,1.0885,-0.62423
4.0014,1.3971,-0.9787,1.1605,5.1437,-0.46686,-0.077109,-0.75033,1.0901,-0.62594
3.9995,1.3968,-0.9817,1.1648,5.1412,-0.46826,-0.078323,-0.75107,1.0917,-0.62765
3.9976,1.3965,-0.98471,1.1692,5.1387,-0.46966,-0.079532,-0.7518,1.0932,-0.62936
3.9957,1.3962,-0.98772,1.1736,5.1361,-0.47106,-0.080736,-0.75252,1.0948,-0.63106
3.9939,1.3958,-0.99073,1.178,5.1336,-0.47245,-0.081934,-0.75323,1.0963,-0.63277
3.992,1.3955,-0.99374,1.1824,5.1311,-0.47385,-0.083126,-0.75393,1.0978,-0.63447
3.9901,1.3952,-0.99676,1.1868,5.1285,-0.47524,-0.084313,-0.75462,1.0993,-0.63618
3.9882,1.3948,-0.99978,1.1912,5.126,-0.47663,-0.085493,-0.75531,1.1008,-0.63788
3.9863,1.3945,-1.0028,1.1956,5.1234,-0.47802,-0.086668,-0.75598,1.1023,-0.63958
3.9843,1.3941,-1.0058,1.2,5.1209,-0.47942,-0.087836,-0.75665,1.1038,-0.64127
3.9824,1.3938,-1.0089,1.2044,5.1183,-0.48081,-0.088998,-0.7573,1.1053,-0.64297
3.9805,1.3934,-1.0119,1.2088,5.1157,-0.48219,-0.090155,-0.75795,1.1067,-0.64467
3.9786,1.3931,-1.0149,1.2132,5.1132,-0.48358,-0.091304,-0.75858,1.1082,-0.64636
3.9766,1.3927,-1.018,1.2177,5.1106,-0.48497,-0.092448,-0.75921,1.1096,-0.64806
3.9747,1.3923,-1.021,1.2221,5.108,-0.48636,-0.093584,-0.75983,1.111,-0.64975
3.9727,1.3919,-1.024,1.2266,5.1054,-0.48774,-0.094715,-0.76044,1.1124,-0.65144
3.9708,1.3916,-1.0271,1.231,5.1028,-0.48913,-0.095838,-0.76104,1.1138,-0.65313
3.9688,1.3912,-1.0301,1.2355,5.1001,-0.49051,-0.096955,-0.76163,1.1152,-0.65482
3.9669,1.3908,-1.0332,1.2399,5.0975,-0.49189,-0.098065,-0.76221,1.1166,-0.6565
3.9649,1.3904,-1.0362,1.2444,5.0949,-0.49327,-0.099168,-0.76278,1.1179,-0.65819
3.9629,1.39,-1.0393,1.2489,5.0923,-0.49465,-0.10026,-0.76334,1.1193,-0.65987
3.9609,1.3896,-1.0423,1.2534,5.0896,-0.49603,-0.10135,-0.76389,1.1206,-0.66155
3.9589,1.3892,-1.0454,1.2579,5.087,-0.49741,-0.10243,-0.76444,1.1219,-0.66323
3.957,1.3888,-1.0484,1.2623,5.0843,-0.49879,-0.10351,-0.76497,1.1232,-0.66491
3.955,1.3884,-1.0515,1.2668,5.0816,-0.50017,-0.10458,-0.76549,1.1245,-0.66659
3.9529,1.3879,-1.0546,1.2713,5.079,-0.50154,-0.10564,-0.76601,1.1258,-0.66827
3.9509,1.3875,-1.0576,1.2758,5.0763,-0.50292,-0.10669,-0.76651,1.1271,-0.66994
3.9489,1.3871,-1.0607,1.2804,5.0736,-0.50429,-0.10773,-0.76701,1.1283,-0.67162
3.9469,1.3866,-1.0638,1.2849,5.0709,-0.50566,-0.10877,-0.7675,1.1296,-0.67329
3.9449,1.3862,-1.0668,1.2894,5.0682,-0.50703,-0.1098,-0.76797,1.1308,-0.67496
3.9428,1.3858,-1.0699,1.2939,5.0655,-0.5084,-0.11082,-0.76844,1.1321,-0.67663
3.9408,1.3853,-1.073,1.2984,5.0628,-0.50977,-0.11183,-0.7689,1.1333,-0.6783
3.9388,1.3849,-1.0761,1.303,5.0601,-0.51114,-0.11284,-0.76935,1.1345,-0.67996
3.9367,1.3844,-1.0791,1.3075,5.0574,-0.5125,-0.11383,-0.76979,1.1357,-0.68163
3.9347,1.384,-1.0822,1.3121,5.0546,-0.51387,-0.11482,-0.77022,1.1369,-0.68329
3.9326,1.3835,-1.0853,1.3166,5.0519,-0.51523,-0.1158,-0.77064,1.138,-0.68495
3.9305,1.383,-1.0884,1.3212,5.0492,-0.5166,-0.11678,-0.77105,1.1392,-0.68661
3.9285,1.3826,-1.0915,1.3257,5.0464,-0.51796,-0.11774,-0.77145,1.1403,-0.68827
3.9264,1.3821,-1.0946,1.3303,5.0437,-0.51932,-0.11869,-0.77184,1.1415,-0.68993
3.9243,1.3816,-1.0976,1.3349,5.0409,-0.52068,-0.11964,-0.77223,1.1426,-0.69159
3.9222,1.3811,-1.1007,1.3394,5.0381,-0.52204,-0.12058,-0.7726,1.1437,-0.69324
3.9201,1.3807,-1.1038,1.344,5.0353,-0.52339,-0.12151,-0.77297,1.1448,-0.69489
3.9181,1.3802,-1.1069,1.3486,5.0326,-0.52475,-0.12243,-0.77332,1.1459,-0.69654
3.916,1.3797,-1.11,1.3532,5.0298,-0.5261,-0.12334,-0.77367,1.1469,-0.69819
3.9138,1.3792,-1.1131,1.3578,5.027,-0.52745,-0.12425,-0.774,1.148,-0.69984
3.9117,1.3787,-1.1162,1.3624,5.0242,-0.52881,-0.12514,-0.77433,1.149,-0.70149
3.9096,1.3782,-1.1193,1.367,5.0214,-0.53016,-0.12602,-0.77465,1.1501,-0.70313
3.9075,1.3777,-1.1224,1.3716,5.0186,-0.5315,-0.1269,-0.77495,1.1511,-0.70478
3.9054,1.3772,-1.1255,1.3762,5.0157,-0.53285,-0.12777,-0.77525,1.1521,-0.70642
3.9032,1.3766,-1.1286,1.3808,5.0129,-0.5342,-0.12862,-0.77554,1.1531,-0.70806
3.9011,1.3761,-1.1317,1.3854,5.0101,-0.53554,-0.12947,-0.77582,1.1541,-0.7097
3.8989,1.3756,-1.1348,1.39,5.0072,-0.53689,-0.13031,-0.77609,1.1551,-0.71133
3.8968,1.3751,-1.1379,1.3946,5.0044,-0.53823,-0.13114,-0.77635,1.156,-0.71297
3.8946,1.3746,-1.141,1.3993,5.0015,-0.53957,-0.13196,-0.7766,1.157,-0.7146
3.8925,1.374,-1.1441,1.4039,4.9987,-0.54091,-0.13277,-0.77685,1.1579,-0.71624
3.8903,1.3735,-1.1472,1.4085,4.9958,-0.54225,-0.13357,-0.77708,1.1588,-0.71787
3.8881,1.373,-1.1503,1.4132,4.9929,-0.54358,-0.13436,-0.7773,1.1598,-0.71949
3.886,1.3724,-1.1535,1.4178,4.99,-0.54492,-0.13514,-0.77752,1.1607,-0.72112
3.8838,1.3719,-1.1566,1.4224,4.9871,-0.54625,-0.13592,-0.77772,1.1616,-0.72275
3.8816,1.3713,-1.1597,1.4271,4.9843,-0.54758,-0.13668,-0.77792,1.1624,-0.72437
3.8794,1.3708,-1.1628,1.4317,4.9814,-0.54891,-0.13743,-0.7781,1.1633,-0.72599
3.8772,1.3702,-1.1659,1.4364,4.9784,-0.55024,-0.13817,-0.77828,1.1642,-0.72761
3.875,1.3697,-1.169,1.4411,4.9755,-0.55157,-0.1389,-0.77845,1.165,-0.72923
3.8728,1.3691,-1.1721,1.4457,4.9726,-0.5529,-0.13962,-0.7786,1.1658,-0.73085
3.8706,1.3686,-1.1752,1.4504,4.9697,-0.55422,-0.14033,-0.77875,1.1666,-0.73246
3.8684,1.368,-1.1784,1.4551,4.9668,-0.55555,-0.14103,-0.77889,1.1674,-0.73408
3.8661,1.3674,-1.1815,1.4597,4.9638,-0.55687,-0.14172,-0.77902,1.1682,-0.73569
3.8639,1.3669,-1.1846,1.4644,4.9609,-0.55819,-0.1424,-0.77914,1.169,-0.7373
3.8617,1.3663,-1.1877,1.4691,4.9579,-0.55951,-0.14307,-0.77925,1.1698,-0.73891
3.8594,1.3657,-1.1908,1.4738,4.955,-0.56082,-0.14373,-0.77935,1.1705,-0.74051
3.8572,1.3652,-1.1939,1.4784,4.952,-0.56214,-0.14438,-0.77944,1.1713,-0.74212
3.8549,1.3646,-1.1971,1.4831,4.949,-0.56345,-0.14502,-0.77953,1.172,-0.74372
3.8527,1.364,-1.2002,1.4878,4.946,-0.56476,-0.14565,-0.7796,1.1727,-0.74532
3.8504,1.3634,-1.2033,1.4925,4.9431,-0.56607,-0.14626,-0.77966,1.1735,-0.74692
3.8481,1.3628,-1.2064,1.4972,4.9401,-0.56738,-0.14687,-0.77972,1.1741,-0.74852
3.8459,1.3622,-1.2095,1.5019,4.9371,-0.56869,-0.14747,-0.77976,1.1748,-0.75012
3.8436,1.3616,-1.2127,1.5066,4.9341,-0.57,-0.14805,-0.7798,1.1755,-0.75171
3.8413,1.361,-1.2158,1.5113,4.9311,-0.5713,-0.14862,-0.77983,1.1762,-0.7533
3.839,1.3605,-1.2189,1.516,4.928,-0.5726,-0.14919,-0.77984,1.1768,-0.75489
3.8367,1.3599,-1.222,1.5207,4.925,-0.5739,-0.14974,-0.77985,1.1774,-0.75648
3.8344,1.3593,-1.2251,1.5254,4.922,-0.5752,-0.15028,-0.77985,1.1781,-0.75807
3.8321,1.3587,-1.2282,1.5301,4.9189,-0.5765,-0.15081,-0.77984,1.1787,-0.75965
3.8298,1.358,-1.2314,1.5349,4.9159,-0.5778,-0.15133,-0.77982,1.1793,-0.76124
3.8275,1.3574,-1.2345,1.5396,4.9129,-0.57909,-0.15183,-0.77979,1.1799,-0.76282
3.8252,1.3568,-1.2376,1.5443,4.9098,-0.58038,-0.15233,-0.77975,1.1804,-0.7644
3.8229,1.3562,-1.2407,1.549,4.9067,-0.58167,-0.15282,-0.7797,1.181,-0.76598
3.8205,1.3556,-1.2438,1.5538,4.9037,-0.58296,-0.15329,-0.77964,1.1815,-0.76755
3.8182,1.355,-1.247,1.5585,4.9006,-0.58425,-0.15375,-0.77958,1.1821,-0.76913
3.8159,1.3544,-1.2501,1.5632,4.8975,-0.58553,-0.1542,-0.7795,1.1826,-0.7707
3.8135,1.3538,-1.2532,1.5679,4.8944,-0.58682,-0.15464,-0.77942,1.1831,-0.77227
3.8112,1.3531,-1.2563,1.5727,4.8913,-0.5881,-0.15507,-0.77932,1.1836,-0.77384
3.8088,1.3525,-1.2594,1.5774,4.8882,-0.58938,-0.15549,-0.77922,1.1841,-0.7754
3.8064,1.3519,-1.2625,1.5821,4.8851,-0.59065,-0.15589,-0.7791,1.1846,-0.77697
3.8041,1.3513,-1.2657,1.5869,4.882,-0.59193,-0.15629,-0.77898,1.185,-0.77853
3.8017,1.3507,-1.2688,1.5916,4.8789,-0.5932,-0.15667,-0.77885,1.1855,-0.78009
3.7993,1.35,-1.2719,1.5964,4.8758,-0.59448,-0.15704,-0.77871,1.1859,-0.78165
3.797,1.3494,-1.275,1.6011,4.8727,-0.59575,-0.1574,-0.77856,1.1864,-0.78321
3.7946,1.3488,-1.2781,1.6059,4.8695,-0.59702,-0.15774,-0.7784,1.1868,-0.78476
3.7922,1.3481,-1.2812,1.6106,4.8664,-0.59828,-0.15808,-0.77823,1.1872,-0.78631
3.7898,1.3475,-1.2844,1.6154,4.8632,-0.59955,-0.1584,-0.77805,1.1876,-0.78786
3.7874,1.3469,-1.2875,1.6201,4.8601,-0.60081,-0.15872,-0.77787,1.1879,-0.78941
3.785,1.3462,-1.2906,1.6249,4.8569,-0.60207,-0.15902,-0.77767,1.1883,-0.79096
3.7826,1.3456,-1.2937,1.6296,4.8538,-0.60333,-0.1593,-0.77746,1.1887,-0.79251
3.7802,1.345,-1.2968,1.6344,4.8506,-0.60459,-0.15958,-0.77725,1.189,-0.79405
3.7777,1.3443,-1.2999,1.6391,4.8474,-0.60584,-0.15984,-0.77703,1.1893,-0.79559
3.7753,1.3437,-1.303,1.6439,4.8442,-0.6071,-0.1601,-0.77679,1.1896,-0.79713
3.7729,1.343,-1.3061,1.6486,4.841,-0.60835,-0.16034,-0.77655,1.1899,-0.79867
3.7704,1.3424,-1.3092,1.6534,4.8378,-0.6096,-0.16057,-0.7763,1.1902,-0.8002
3.768,1.3418,-1.3123,1.6582,4.8346,-0.61084,-0.16078,-0.77604,1.1905,-0.80173
3.7656,1.3411,-1.3154,1.6629,4.8314,-0.61209,-0.16099,-0.77577,1.1908,-0.80326
3.7631,1.3405,-1.3185,1.6677,4.8282,-0.61333,-0.16118,-0.77549,1.191,-0.80479
3.7606,1.3398,-1.3216,1.6725,4.825,-0.61457,-0.16136,-0.7752,1.1913,-0.80632
3.7582,1.3392,-1.3247,1.6772,4.8217,-0.61581,-0.16153,-0.7749,1.1915,-0.80784
3.7557,1.3385,-1.3278,1.682,4.8185,-0.61705,-0.16169,-0.7746,1.1917,-0.80937
3.7532,1.3379,-1.3309,1.6868,4.8153,-0.61828,-0.16183,-0.77428,1.1919,-0.81089
3.7508,1.3372,-1.334,1.6915,4.812,-0.61952,-0.16196,-0.77396,1.1921,-0.81241
3.7483,1.3366,-1.3371,1.6963,4.8088,-0.62075,-0.16208,-0.77362,1.1923,-0.81392
3.7458,1.3359,-1.3402,1.7011,4.8055,-0.62198,-0.16219,-0.77328,1.1925,-0.81544
3.7433,1.3353,-1.3433,1.7058,4.8022,-0.6232,-0.16229,-0.77293,1.1926,-0.81695
3.7408,1.3346,-1.3464,1.7106,4.799,-0.62443,-0.16237,-0.77256,1.1928,-0.81846
3.7383,1.334,-1.3495,1.7154,4.7957,-0.62565,-0.16244,-0.77219,1.1929,-0.81997
3.7358,1.3333,-1.3526,1.7201,4.7924,-0.62687,-0.1625,-0.77181,1.193,-0.82147
3.7333,1.3327,-1.3557,1.7249,4.7891,-0.62809,-0.16255,-0.77143,1.1931,-0.82298
3.7308,1.332,-1.3587,1.7297,4.7858,-0.6293,-0.16258,-0.77103,1.1932,-0.82448
3.7283,1.3314,-1.3618,1.7345,4.7825,-0.63052,-0.16261,-0.77062,1.1933,-0.82598
3.7257,1.3307,-1.3649,1.7392,4.7792,-0.63173,-0.16262,-0.77021,1.1934,-0.82748
3.7232,1.3301,-1.368,1.744,4.7759,-0.63294,-0.16261,-0.76978,1.1934,-0.82897
3.7207,1.3294,-1.3711,1.7488,4.7726,-0.63415,-0.1626,-0.76935,1.1935,-0.83047
3.7181,1.3288,-1.3741,1.7536,4.7693,-0.63535,-0.16257,-0.7689,1.1935,-0.83196
3.7156,1.3281,-1.3772,1.7583,4.7659,-0.63655,-0.16253,-0.76845,1.1935,-0.83345
3.7131,1.3275,-1.3803,1.7631,4.7626,-0.63775,-0.16248,-0.76799,1.1935,-0.83493
3.7105,1.3268,-1.3834,1.7679,4.7593,-0.63895,-0.16242,-0.76752,1.1935,-0.83642
3.7079,1.3262,-1.3864,1.7727,4.7559,-0.64015,-0.16234,-0.76704,1.1935,-0.8379
3.7054,1.3255,-1.3895,1.7774,4.7526,-0.64134,-0.16226,-0.76656,1.1935,-0.83938
3.7028,1.3249,-1.3926,1.7822,4.7492,-0.64253,-0.16215,-0.76606,1.1935,-0.84086
3.7002,1.3242,-1.3956,1.787,4.7458,-0.64372,-0.16204,-0.76555,1.1934,-0.84233
3.6977,1.3236,-1.3987,1.7917,4.7425,-0.64491,-0.16192,-0.76504,1.1933,-0.84381
3.6951,1.3229,-1.4018,1.7965,4.7391,-0.64609,-0.16178,-0.76451,1.1933,-0.84528
3.6925,1.3223,-1.4048,1.8013,4.7357,-0.64728,-0.16163,-0.76398,1.1932,-0.84675
3.6899,1.3217,-1.4079,1.8061,4.7323,-0.64846,-0.16147,-0.76344,1.1931,-0.84821
3.6873,1.321,-1.4109,1.8108,4.7289,-0.64963,-0.16129,-0.76289,1.193,-0.84968
3.6847,1.3204,-1.414,1.8156,4.7255,-0.65081,-0.16111,-0.76233,1.1929,-0.85114
3.6821,1.3197,-1.417,1.8204,4.7221,-0.65198,-0.16091,-0.76176,1.1927,-0.8526
3.6795,1.3191,-1.4201,1.8252,4.7187,-0.65315,-0.1607,-0.76118,1.1926,-0.85406
3.6769,1.3184,-1.4231,1.8299,4.7153,-0.65432,-0.16047,-0.7606,1.1924,-0.85551
3.6743,1.3178,-1.4261,1.8347,4.7118,-0.65549,-0.16024,-0.76,1.1922,-0.85697
3.6716,1.3171,-1.4292,1.8395,4.7084,-0.65665,-0.15999,-0.7594,1.192,-0.85842
3.669,1.3165,-1.4322,1.8442,4.705,-0.65781,-0.15973,-0.75879,1.1919,-0.85987
3.6664,1.3159,-1.4353,1.849,4.7015,-0.65897,-0.15946,-0.75817,1.1916,-0.86131
3.6637,1.3152,-1.4383,1.8538,4.6981,-0.66012,-0.15917,-0.75753,1.1914,-0.86276
3.6611,1.3146,-1.4413,1.8585,4.6946,-0.66128,-0.15888,-0.7569,1.1912,-0.8642
3.6584,1.314,-1.4443,1.8633,4.6912,-0.66243,-0.15857,-0.75625,1.1909,-0.86564
3.6558,1.3133,-1.4474,1.8681,4.6877,-0.66358,-0.15824,-0.75559,1.1907,-0.86708
3.6531,1.3127,-1.4504,1.8728,4.6842,-0.66472,-0.15791,-0.75493,1.1904,-0.86851
3.6505,1.3121,-1.4534,1.8776,4.6808,-0.66587,-0.15757,-0.75425,1.1901,-0.86994
3.6478,1.3114,-1.4564,1.8823,4.6773,-0.66701,-0.15721,-0.75357,1.1898,-0.87137
3.6451,1.3108,-1.4594,1.8871,4.6738,-0.66815,-0.15684,-0.75288,1.1895,-0.8728
3.6425,1.3102,-1.4624,1.8919,4.6703,-0.66928,-0.15646,-0.75218,1.1892,-0.87423
3.6398,1.3096,-1.4655,1.8966,4.6668,-0.67042,-0.15606,-0.75147,1.1889,-0.87565
3.6371,1.3089,-1.4685,1.9014,4.6633,-0.67155,-0.15565,-0.75075,1.1885,-0.87707
3.6344,1.3083,-1.4715,1.9061,4.6598,-0.67268,-0.15524,-0.75002,1.1882,-0.87849
3.6317,1.3077,-1.4745,1.9109,4.6563,-0.6738,-0.15481,-0.74929,1.1878,-0.87991
3.629,1.3071,-1.4775,1.9156,4.6527,-0.67493,-0.15436,-0.74854,1.1875,-0.88132
3.6263,1.3065,-1.4804,1.9204,4.6492,-0.67605,-0.15391,-0.74779,1.1871,-0.88273
3.6236,1.3058,-1.4834,1.9251,4.6457,-0.67717,-0.15344,-0.74703,1.1867,-0.88414
3.6209,1.3052,-1.4864,1.9299,4.6421,-0.67828,-0.15296,-0.74626,1.1862,-0.88555
3.6182,1.3046,-1.4894,1.9346,4.6386,-0.67939,-0.15247,-0.74548,1.1858,-0.88695
3.6155,1.304,-1.4924,1.9394,4.635,-0.6805,-0.15197,-0.74469,1.1854,-0.88835
3.6127,1.3034,-1.4954,1.9441,4.6315,-0.68161,-0.15146,-0.7439,1.1849,-0.88975
3.61,1.3028,-1.4983,1.9488,4.6279,-0.68272,-0.15093,-0.74309,1.1845,-0.89115
3.6073,1.3022,-1.5013,1.9536,4.6244,-0.68382,-0.15039,-0.74228,1.184,-0.89254
3.6045,1.3016,-1.5043,1.9583,4.6208,-0.68492,-0.14984,-0.74146,1.1835,-0.89394
3.6018,1.301,-1.5072,1.963,4.6172,-0.68602,-0.14928,-0.74063,1.183,-0.89532
3.599,1.3004,-1.5102,1.9678,4.6136,-0.68711,-0.14871,-0.73979,1.1825,-0.89671
3.5963,1.2998,-1.5132,1.9725,4.61,-0.6882,-0.14812,-0.73894,1.182,-0.8981
3.5935,1.2992,-1.5161,1.9772,4.6064,-0.68929,-0.14753,-0.73809,1.1815,-0.89948
3.5908,1.2986,-1.5191,1.9819,4.6028,-0.69038,-0.14692,-0.73722,1.1809,-0.90086
3.588,1.298,-1.522,1.9867,4.5992,-0.69146,-0.1463,-0.73635,1.1804,-0.90224
3.5853,1.2975,-1.525,1.9914,4.5956,-0.69254,-0.14567,-0.73547,1.1798,-0.90361
3.5825,1.2969,-1.5279,1.9961,4.592,-0.69362,-0.14503,-0.73458,1.1792,-0.90498
3.5797,1.2963,-1.5308,2.0008,4.5884,-0.6947,-0.14437,-0.73368,1.1786,-0.90635
3.5769,1.2957,-1.5338,2.0055,4.5847,-0.69577,-0.14371,-0.73278,1.178,-0.90772
3.5741,1.2951,-1.5367,2.0102,4.5811,-0.69684,-0.14303,-0.73186,1.1774,-0.90908
3.5713,1.2946,-1.5396,2.015,4.5775,-0.6979,-0.14234,-0.73094,1.1768,-0.91045
3.5686,1.294,-1.5425,2.0197,4.5738,-0.69897,-0.14164,-0.73001,1.1761,-0.91181
3.5658,1.2934,-1.5455,2.0244,4.5702,-0.70003,-0.14093,-0.72907,1.1755,-0.91316
3.563,1.2929,-1.5484,2.0291,4.5665,-0.70109,-0.14021,-0.72812,1.1748,-0.91452
3.5601,1.2923,-1.5513,2.0338,4.5629,-0.70214,-0.13947,-0.72716,1.1741,-0.91587
3.5573,1.2918,-1.5542,2.0385,4.5592,-0.7032,-0.13873,-0.7262,1.1735,-0.91722
3.5545,1.2912,-1.5571,2.0432,4.5555,-0.70425,-0.13797,-0.72522,1.1728,-0.91857
3.5517,1.2907,-1.56,2.0478,4.5518,-0.70529,-0.1372,-0.72424,1.1721,-0.91991
3.5489,1.2901,-1.5629,2.0525,4.5482,-0.70634,-0.13643,-0.72325,1.1713,-0.92125
3.5461,1.2896,-1.5658,2.0572,4.5445,-0.70738,-0.13564,-0.72225,1.1706,-0.92259
3.5432,1.289,-1.5687,2.0619,4.5408,-0.70842,-0.13484,-0.72125,1.1699,-0.92393
3.5404,1.2885,-1.5715,2.0666,4.5371,-0.70945,-0.13402,-0.72023,1.1691,-0.92526
3.5375,1.288,-1.5744,2.0712,4.5334,-0.71049,-0.1332,-0.71921,1.1683,-0.92659
3.5347,1.2874,-1.5773,2.0759,4.5297,-0.71152,-0.13237,-0.71818,1.1676,-0.92792
3.5319,1.2869,-1.5802,2.0806,4.526,-0.71254,-0.13153,-0.71714,1.1668,-0.92925
3.529,1.2864,-1.583,2.0853,4.5222,-0.71357,-0.13067,-0.71609,1.166,-0.93057
3.5261,1.2859,-1.5859,2.0899,4.5185,-0.71459,-0.12981,-0.71504,1.1651,-0.93189
3.5233,1.2853,-1.5888,2.0946,4.5148,-0.71561,-0.12893,-0.71397,1.1643,-0.93321
3.5204,1.2848,-1.5916,2.0992,4.511,-0.71662,-0.12805,-0.7129,1.1635,-0.93453
3.5175,1.2843,-1.5945,2.1039,4.5073,-0.71763,-0.12715,-0.71182,1.1626,-0.93584
3.5147,1.2838,-1.5973,2.1085,4.5036,-0.71864,-0.12624,-0.71073,1.1618,-0.93715
3.5118,1.2833,-1.6001,2.1132,4.4998,-0.71965,-0.12532,-0.70963,1.1609,-0.93846
3.5089,1.2828,-1.603,2.1178,4.4961,-0.72065,-0.1244,-0.70853,1.16,-0.93977
3.506,1.2823,-1.6058,2.1225,4.4923,-0.72165,-0.12346,-0.70742,1.1591,-0.94107
3.5031,1.2818,-1.6086,2.1271,4.4885,-0.72265,-0.12251,-0.7063,1.1582,-0.94237
3.5003,1.2813,-1.6115,2.1317,4.4848,-0.72364,-0.12155,-0.70517,1.1573,-0.94367
3.4974,1.2808,-1.6143,2.1363,4.481,-0.72464,-0.12058,-0.70403,1.1564,-0.94496
3.4945,1.2804,-1.6171,2.141,4.4772,-0.72562,-0.1196,-0.70289,1.1554,-0.94625
3.4916,1.2799,-1.6199,2.1456,4.4734,-0.72661,-0.11862,-0.70174,1.1545,-0.94754
3.4886,1.2794,-1.6227,2.1502,4.4696,-0.72759,-0.11762,-0.70058,1.1535,-0.94883
3.4857,1.2789,-1.6255,2.1548,4.4658,-0.72857,-0.11661,-0.69941,1.1525,-0.95011
3.4828,1.2785,-1.6283,2.1594,4.462,-0.72954,-0.11559,-0.69823,1.1516,-0.95139
3.4799,1.278,-1.6311,2.164,4.4582,-0.73052,-0.11456,-0.69705,1.1506,-0.95267
3.477,1.2776,-1.6339,2.1686,4.4544,-0.73149,-0.11352,-0.69585,1.1496,-0.95395
3.474,1.2771,-1.6367,2.1732,4.4506,-0.73245,-0.11248,-0.69465,1.1485,-0.95522
3.4711,1.2767,-1.6394,2.1778,4.4468,-0.73342,-0.11142,-0.69345,1.1475,-0.95649
3.4682,1.2762,-1.6422,2.1824,4.4429,-0.73438,-0.11035,-0.69223,1.1465,-0.95776
3.4652,1.2758,-1.645,2.187,4.4391,-0.73533,-0.10928,-0.69101,1.1454,-0.95902
3.4623,1.2753,-1.6477,2.1916,4.4352,-0.73629,-0.10819,-0.68978,1.1443,-0.96029
3.4593,1.2749,-1.6505,2.1961,4.4314,-0.73724,-0.1071,-0.68854,1.1433,-0.96155
3.4564,1.2745,-1.6532,2.2007,4.4276,-0.73819,-0.10599,-0.68729,1.1422,-0.9628
3.4534,1.2741,-1.656,2.2053,4.4237,-0.73913,-0.10488,-0.68603,1.1411,-0.96406
3.4505,1.2736,-1.6587,2.2098,4.4198,-0.74007,-0.10376,-0.68477,1.14,-0.96531
3.4475,1.2732,-1.6615,2.2144,4.416,-0.74101,-0.10263,-0.6835,1.1389,-0.96656
3.4446,1.2728,-1.6642,2.219,4.4121,-0.74194,-0.10149,-0.68222,1.1377,-0.9678
3.4416,1.2724,-1.6669,2.2235,4.4082,-0.74287,-0.10034,-0.68094,1.1366,-0.96904
3.4386,1.272,-1.6697,2.228,4.4044,-0.7438,-0.099179,-0.67965,1.1354,-0.97028
3.4356,1.2716,-1.6724,2.2326,4.4005,-0.74473,-0.098013,-0.67834,1.1343,-0.97152
3.4327,1.2712,-1.6751,2.2371,4.3966,-0.74565,-0.096838,-0.67704,1.1331,-0.97276
3.4297,1.2709,-1.6778,2.2417,4.3927,-0.74657,-0.095654,-0.67572,1.1319,-0.97399
3.4267,1.2705,-1.6805,2.2462,4.3888,-0.74748,-0.094462,-0.6744,1.1307,-0.97522
3.4237,1.2701,-1.6832,2.2507,4.3849,-0.74839,-0.093261,-0.67307,1.1295,-0.97644
3.4207,1.2697,-1.6859,2.2552,4.381,-0.7493,-0.092052,-0.67173,1.1283,-0.97767
3.4177,1.2694,-1.6886,2.2597,4.3771,-0.75021,-0.090834,-0.67038,1.127,-0.97889
3.4147,1.269,-1.6912,2.2642,4.3732,-0.75111,-0.089609,-0.66903,1.1258,-0.9801
3.4117,1.2686,-1.6939,2.2687,4.3692,-0.75201,-0.088375,-0.66766,1.1245,-0.98132
3.4087,1.2683,-1.6966,2.2732,4.3653,-0.7529,-0.087133,-0.6663,1.1233,-0.98253
3.4057,1.2679,-1.6992,2.2777,4.3614,-0.7538,-0.085883,-0.66492,1.122,-0.98374
3.4026,1.2676,-1.7019,2.2822,4.3574,-0.75469,-0.084626,-0.66354,1.1207,-0.98494
3.3996,1.2673,-1.7045,2.2867,4.3535,-0.75557,-0.08336,-0.66214,1.1194,-0.98615
3.3966,1.2669,-1.7072,2.2912,4.3495,-0.75645,-0.082087,-0.66075,1.1181,-0.98735
3.3936,1.2666,-1.7098,2.2956,4.3456,-0.75733,-0.080806,-0.65934,1.1168,-0.98855
3.3905,1.2663,-1.7125,2.3001,4.3416,-0.75821,-0.079518,-0.65793,1.1155,-0.98974
3.3875,1.266,-1.7151,2.3046,4.3377,-0.75908,-0.078222,-0.65651,1.1141,-0.99093
3.3845,1.2657,-1.7177,2.309,4.3337,-0.75995,-0.076918,-0.65508,1.1128,-0.99212
3.3814,1.2654,-1.7203,2.3135,4.3297,-0.76081,-0.075607,-0.65364,1.1114,-0.99331
3.3784,1.2651,-1.7229,2.3179,4.3258,-0.76167,-0.074289,-0.6522,1.11,-0.99449
3.3753,1.2648,-1.7255,2.3223,4.3218,-0.76253,-0.072964,-0.65075,1.1087,-0.99567
3.3723,1.2645,-1.7281,2.3268,4.3178,-0.76339,-0.071632,-0.64929,1.1073,-0.99685
3.3692,1.2642,-1.7307,2.3312,4.3138,-0.76424,-0.070293,-0.64783,1.1059,-0.99802
3.3662,1.2639,-1.7333,2.3356,4.3098,-0.76509,-0.068947,-0.64636,1.1045,-0.99919
3.3631,1.2636,-1.7359,2.34,4.3058,-0.76593,-0.067594,-0.64488,1.103,-1.0004
3.36,1.2634,-1.7385,2.3444,4.3018,-0.76677,-0.066234,-0.64339,1.1016,-1.0015
3.357,1.2631,-1.7411,2.3488,4.2978,-0.76761,-0.064868,-0.6419,1.1001,-1.0027
3.3539,1.2629,-1.7436,2.3532,4.2938,-0.76844,-0.063495,-0.6404,1.0987,-1.0038
3.3508,1.2626,-1.7462,2.3576,4.2898,-0.76927,-0.062116,-0.63889,1.0972,-1.005
3.3477,1.2624,-1.7487,2.362,4.2857,-0.7701,-0.06073,-0.63738,1.0957,-1.0062
3.3447,1.2621,-1.7513,2.3664,4.2817,-0.77092,-0.059338,-0.63585,1.0943,-1.0073
3.3416,1.2619,-1.7538,2.3708,4.2777,-0.77174,-0.05794,-0.63433,1.0928,-1.0085
3.3385,1.2617,-1.7564,2.3751,4.2737,-0.77256,-0.056536,-0.63279,1.0912,-1.0096
3.3354,1.2614,-1.7589,2.3795,4.2696,-0.77337,-0.055125,-0.63125,1.0897,-1.0107
3.3323,1.2612,-1.7614,2.3839,4.2656,-0.77418,-0.053709,-0.6297,1.0882,-1.0119
3.3292,1.261,-1.7639,2.3882,4.2615,-0.77499,-0.052287,-0.62814,1.0867,-1.013
3.3261,1.2608,-1.7664,2.3926,4.2575,-0.77579,-0.050859,-0.62658,1.0851,-1.0142
3.323,1.2606,-1.7689,2.3969,4.2534,-0.77659,-0.049426,-0.62501,1.0835,-1.0153
3.3199,1.2604,-1.7714,2.4012,4.2493,-0.77738,-0.047987,-0.62343,1.082,-1.0164
3.3168,1.2602,-1.7739,2.4055,4.2453,-0.77818,-0.046542,-0.62184,1.0804,-1.0175
3.3137,1.26,-1.7764,2.4099,4.2412,-0.77896,-0.045092,-0.62025,1.0788,-1.0187
3.3105,1.2599,-1.7789,2.4142,4.2371,-0.77975,-0.043637,-0.61865,1.0772,-1.0198
3.3074,1.2597,-1.7814,2.4185,4.233,-0.78053,-0.042177,-0.61705,1.0756,-1.0209
3.3043,1.2595,-1.7838,2.4228,4.229,-0.78131,-0.040711,-0.61544,1.074,-1.022
3.3012,1.2594,-1.7863,2.4271,4.2249,-0.78208,-0.039241,-0.61382,1.0723,-1.0231
3.298,1.2592,-1.7887,2.4314,4.2208,-0.78285,-0.037766,-0.61219,1.0707,-1.0242
3.2949,1.2591,-1.7912,2.4356,4.2167,-0.78361,-0.036286,-0.61056,1.069,-1.0253
3.2918,1.2589,-1.7936,2.4399,4.2126,-0.78438,-0.034801,-0.60892,1.0674,-1.0264
3.2886,1.2588,-1.7961,2.4442,4.2085,-0.78514,-0.033312,-0.60728,1.0657,-1.0275
3.2855,1.2586,-1.7985,2.4484,4.2043,-0.78589,-0.031818,-0.60563,1.064,-1.0286
3.2824,1.2585,-1.8009,2.4527,4.2002,-0.78664,-0.03032,-0.60397,1.0623,-1.0297
3.2792,1.2584,-1.8033,2.4569,4.1961,-0.78739,-0.028817,-0.6023,1.0606,-1.0308
3.2761,1.2583,-1.8057,2.4612,4.192,-0.78813,-0.02731,-0.60063,1.0589,-1.0319
3.2729,1.2582,-1.8081,2.4654,4.1879,-0.78887,-0.0258,-0.59895,1.0572,-1.0329
3.2697,1.2581,-1.8105,2.4696,4.1837,-0.78961,-0.024285,-0.59727,1.0554,-1.034
3.2666,1.258,-1.8129,2.4738,4.1796,-0.79034,-0.022766,-0.59557,1.0537,-1.0351
3.2634,1.2579,-1.8153,2.4781,4.1754,-0.79107,-0.021244,-0.59388,1.0519,-1.0362
3.2603,1.2578,-1.8176,2.4823,4.1713,-0.7918,-0.019717,-0.59217,1.0502,-1.0372
3.2571,1.2577,-1.82,2.4865,4.1671,-0.79252,-0.018187,-0.59046,1.0484,-1.0383
3.2539,1.2577,-1.8224,2.4907,4.163,-0.79324,-0.016654,-0.58874,1.0466,-1.0394
3.2507,1.2576,-1.8247,2.4948,4.1588,-0.79395,-0.015117,-0.58702,1.0448,-1.0404
3.2476,1.2576,-1.8271,2.499,4.1547,-0.79466,-0.013577,-0.58529,1.043,-1.0415
3.2444,1.2575,-1.8294,2.5032,4.1505,-0.79537,-0.012034,-0.58355,1.0412,-1.0425
3.2412,1.2575,-1.8317,2.5073,4.1463,-0.79607,-0.010488,-0.58181,1.0394,-1.0436
3.238,1.2574,-1.8341,2.5115,4.1421,-0.79677,-0.0089387,-0.58006,1.0376,-1.0446
3.2348,1.2574,-1.8364,2.5156,4.138,-0.79747,-0.0073865,-0.5783,1.0357,-1.0457
3.2316,1.2574,-1.8387,2.5198,4.1338,-0.79816,-0.0058316,-0.57654,1.0339,-1.0467
3.2284,1.2573,-1.841,2.5239,4.1296,-0.79885,-0.004274,-0.57477,1.032,-1.0478
3.2252,1.2573,-1.8433,2.528,4.1254,-0.79953,-0.0027138,-0.573,1.0301,-1.0488
3.222,1.2573,-1.8456,2.5322,4.1212,-0.80021,-0.0011512,-0.57122,1.0283,-1.0498
3.2188,1.2573,-1.8478,2.5363,4.117,-0.80089,0.00041375,-0.56943,1.0264,-1.0509
3.2156,1.2573,-1.8501,2.5404,4.1128,-0.80156,0.001981,-0.56764,1.0245,-1.0519
3.2124,1.2573,-1.8524,2.5445,4.1086,-0.80223,0.0035503,-0.56584,1.0226,-1.0529
3.2092,1.2573,-1.8546,2.5485,4.1044,-0.80289,0.0051217,-0.56403,1.0206,-1.0539
3.206,1.2574,-1.8569,2.5526,4.1002,-0.80355,0.0066951,-0.56222,1.0187,-1.0549
3.2028,1.2574,-1.8591,2.5567,4.0959,-0.80421,0.0082702,-0.5604,1.0168,-1.0559
3.1996,1.2574,-1.8614,2.5608,4.0917,-0.80486,0.0098471,-0.55858,1.0148,-1.057
3.1964,1.2575,-1.8636,2.5648,4.0875,-0.80551,0.011426,-0.55675,1.0129,-1.058
3.1931,1.2575,-1.8658,2.5689,4.0832,-0.80616,0.013006,-0.55491,1.0109,-1.059
3.1899,1.2576,-1.8681,2.5729,4.079,-0.8068,0.014587,-0.55307,1.0089,-1.06
3.1867,1.2576,-1.8703,2.5769,4.0748,-0.80743,0.01617,-0.55122,1.007,-1.061
3.1834,1.2577,-1.8725,2.581,4.0705,-0.80807,0.017754,-0.54937,1.005,-1.0619
3.1802,1.2578,-1.8747,2.585,4.0663,-0.8087,0.019339,-0.54751,1.003,-1.0629
3.177,1.2579,-1.8768,2.589,4.062,-0.80932,0.020924,-0.54564,1.0009,-1.0639
3.1737,1.258,-1.879,2.593,4.0578,-0.80994,0.022511,-0.54377,0.99893,-1.0649
3.1705,1.2581,-1.8812,2.597,4.0535,-0.81056,0.024099,-0.54189,0.9969,-1.0659
3.1673,1.2581,-1.8834,2.601,4.0492,-0.81117,0.025687,-0.54001,0.99486,-1.0669
3.164,1.2583,-1.8855,2.6049,4.045,-0.81178,0.027276,-0.53812,0.99281,-1.0678
3.1608,1.2584,-1.8877,2.6089,4.0407,-0.81239,0.028865,-0.53623,0.99075,-1.0688
3.1575,1.2585,-1.8898,2.6129,4.0364,-0.81299,0.030454,-0.53433,0.98869,-1.0698
3.1543,1.2586,-1.8919,2.6168,4.0321,-0.81359,0.032044,-0.53242,0.98661,-1.0707
3.151,1.2587,-1.8941,2.6207,4.0278,-0.81418,0.033633,-0.53051,0.98453,-1.0717
3.1477,1.2589,-1.8962,2.6247,4.0236,-0.81477,0.035223,-0.52859,0.98244,-1.0727
3.1445,1.259,-1.8983,2.6286,4.0193,-0.81536,0.036813,-0.52667,0.98034,-1.0736
3.1412,1.2592,-1.9004,2.6325,4.015,-0.81594,0.038402,-0.52474,0.97823,-1.0746
3.138,1.2593,-1.9025,2.6364,4.0107,-0.81652,0.039991,-0.52281,0.97611,-1.0755
3.1347,1.2595,-1.9046,2.6403,4.0064,-0.81709,0.04158,-0.52087,0.97398,-1.0765
3.1314,1.2597,-1.9067,2.6442,4.0021,-0.81766,0.043168,-0.51892,0.97184,-1.0774
3.1281,1.2598,-1.9087,2.6481,3.9977,-0.81823,0.044755,-0.51697,0.96969,-1.0783
3.1249,1.26,-1.9108,2.652,3.9934,-0.81879,0.046341,-0.51501,0.96754,-1.0793
3.1216,1.2602,-1.9128,2.6558,3.9891,-0.81934,0.047927,-0.51305,0.96538,-1.0802
3.1183,1.2604,-1.9149,2.6597,3.9848,-0.8199,0.049512,-0.51108,0.96321,-1.0811
3.115,1.2606,-1.9169,2.6636,3.9805,-0.82045,0.051095,-0.50911,0.96102,-1.082
3.1117,1.2608,-1.919,2.6674,3.9761,-0.82099,0.052677,-0.50713,0.95884,-1.083
3.1085,1.261,-1.921,2.6712,3.9718,-0.82153,0.054258,-0.50515,0.95664,-1.0839
3.1052,1.2612,-1.923,2.675,3.9675,-0.82207,0.055838,-0.50316,0.95443,-1.0848
3.1019,1.2615,-1.925,2.6789,3.9631,-0.8226,0.057416,-0.50116,0.95222,-1.0857
3.0986,1.2617,-1.927,2.6827,3.9588,-0.82313,0.058992,-0.49916,0.94999,-1.0866
3.0953,1.2619,-1.929,2.6865,3.9544,-0.82366,0.060567,-0.49716,0.94776,-1.0875
3.092,1.2622,-1.931,2.6902,3.9501,-0.82418,0.062139,-0.49515,0.94552,-1.0884
3.0887,1.2624,-1.933,2.694,3.9457,-0.82469,0.06371,-0.49313,0.94327,-1.0893
3.0854,1.2627,-1.9349,2.6978,3.9414,-0.8252,0.065278,-0.49111,0.94101,-1.0902
3.0821,1.263,-1.9369,2.7016,3.937,-0.82571,0.066844,-0.48909,0.93875,-1.0911
3.0788,1.2632,-1.9389,2.7053,3.9326,-0.82622,0.068408,-0.48706,0.93647,-1.092
3.0755,1.2635,-1.9408,2.709,3.9283,-0.82671,0.06997,-0.48502,0.93419,-1.0929
3.0722,1.2638,-1.9427,2.7128,3.9239,-0.82721,0.071529,-0.48298,0.9319,-1.0938
3.0689,1.2641,-1.9447,2.7165,3.9195,-0.8277,0.073085,-0.48093,0.9296,-1.0946
3.0656,1.2644,-1.9466,2.7202,3.9151,-0.82819,0.074638,-0.47888,0.92729,-1.0955
3.0623,1.2647,-1.9485,2.7239,3.9107,-0.82867,0.076189,-0.47682,0.92498,-1.0964
3.0589,1.265,-1.9504,2.7276,3.9064,-0.82915,0.077736,-0.47476,0.92266,-1.0973
3.0556,1.2653,-1.9523,2.7313,3.902,-0.82962,0.079281,-0.4727,0.92032,-1.0981
3.0523,1.2656,-1.9542,2.735,3.8976,-0.83009,0.080822,-0.47063,0.91798,-1.099
3.049,1.266,-1.9561,2.7386,3.8932,-0.83056,0.08236,-0.46855,0.91564,-1.0998
3.0457,1.2663,-1.9579,2.7423,3.8888,-0.83102,0.083894,-0.46647,0.91328,-1.1007
3.0423,1.2666,-1.9598,2.7459,3.8844,-0.83148,0.085425,-0.46438,0.91092,-1.1015
3.039,1.267,-1.9616,2.7496,3.88,-0.83193,0.086952,-0.46229,0.90855,-1.1024
3.0357,1.2673,-1.9635,2.7532,3.8756,-0.83238,0.088476,-0.4602,0.90617,-1.1032
3.0323,1.2677,-1.9653,2.7568,3.8711,-0.83283,0.089995,-0.4581,0.90378,-1.1041
3.029,1.268,-1.9672,2.7604,3.8667,-0.83327,0.091511,-0.45599,0.90138,-1.1049
3.0257,1.2684,-1.969,2.764,3.8623,-0.8337,0.093022,-0.45388,0.89898,-1.1057
3.0223,1.2688,-1.9708,2.7676,3.8579,-0.83414,0.09453,-0.45177,0.89657,-1.1066
3.019,1.2692,-1.9726,2.7712,3.8534,-0.83456,0.096033,-0.44965,0.89415,-1.1074
3.0157,1.2696,-1.9744,2.7748,3.849,-0.83499,0.097531,-0.44752,0.89172,-1.1082
3.0123,1.2699,-1.9762,2.7784,3.8446,-0.83541,0.099025,-0.44539,0.88929,-1.109
3.009,1.2703,-1.9779,2.7819,3.8401,-0.83582,0.10051,-0.44326,0.88685,-1.1099
3.0056,1.2707,-1.9797,2.7854,3.8357,-0.83623,0.102,-0.44112,0.8844,-1.1107
3.0023,1.2712,-1.9815,2.789,3.8313,-0.83664,0.10348,-0.43898,0.88194,-1.1115
2.9989,1.2716,-1.9832,2.7925,3.8268,-0.83704,0.10495,-0.43683,0.87947,-1.1123
2.9956,1.272,-1.985,2.796,3.8224,-0.83744,0.10642,-0.43468,0.877,-1.1131
2.9922,1.2724,-1.9867,2.7995,3.8179,-0.83783,0.10789,-0.43253,0.87452,-1.1139
2.9889,1.2729,-1.9884,2.803,3.8134,-0.83822,0.10935,-0.43037,0.87203,-1.1147
2.9855,1.2733,-1.9901,2.8065,3.809,-0.8386,0.1108,-0.4282,0.86954,-1.1155
2.9822,1.2737,-1.9919,2.81,3.8045,-0.83898,0.11225,-0.42603,0.86704,-1.1163
2.9788,1.2742,-1.9936,2.8134,3.8001,-0.83936,0.11369,-0.42386,0.86453,-1.117
2.9755,1.2747,-1.9952,2.8169,3.7956,-0.83973,0.11513,-0.42168,0.86201,-1.1178
2.9721,1.2751,-1.9969,2.8203,3.7911,-0.8401,0.11656,-0.4195,0.85948,-1.1186
2.9688,1.2756,-1.9986,2.8238,3.7866,-0.84046,0.11798,-0.41732,0.85695,-1.1194
2.9654,1.2761,-2.0003,2.8272,3.7822,-0.84082,0.1194,-0.41513,0.85441,-1.1201
2.962,1.2765,-2.0019,2.8306,3.7777,-0.84117,0.12081,-0.41293,0.85187,-1.1209
2.9587,1.277,-2.0036,2.834,3.7732,-0.84152,0.12222,-0.41073,0.84931,-1.1217
2.9553,1.2775,-2.0052,2.8374,3.7687,-0.84187,0.12362,-0.40853,0.84675,-1.1224
2.9519,1.278,-2.0068,2.8408,3.7642,-0.84221,0.12501,-0.40632,0.84418,-1.1232
2.9486,1.2785,-2.0085,2.8441,3.7597,-0.84255,0.1264,-0.40411,0.84161,-1.1239
2.9452,1.279,-2.0101,2.8475,3.7552,-0.84288,0.12778,-0.4019,0.83903,-1.1247
2.9418,1.2795,-2.0117,2.8509,3.7507,-0.84321,0.12915,-0.39968,0.83644,-1.1254
2.9384,1.2801,-2.0133,2.8542,3.7462,-0.84353,0.13052,-0.39745,0.83384,-1.1262
2.9351,1.2806,-2.0149,2.8575,3.7417,-0.84385,0.13188,-0.39523,0.83124,-1.1269
2.9317,1.2811,-2.0164,2.8608,3.7372,-0.84416,0.13323,-0.39299,0.82863,-1.1277
2.9283,1.2817,-2.018,2.8642,3.7327,-0.84447,0.13458,-0.39076,0.82601,-1.1284
2.9249,1.2822,-2.0196,2.8675,3.7282,-0.84478,0.13592,-0.38852,0.82339,-1.1291
2.9216,1.2827,-2.0211,2.8707,3.7237,-0.84508,0.13725,-0.38628,0.82076,-1.1298
2.9182,1.2833,-2.0226,2.874,3.7191,-0.84537,0.13857,-0.38403,0.81812,-1.1306
2.9148,1.2839,-2.0242,2.8773,3.7146,-0.84567,0.13989,-0.38178,0.81547,-1.1313
2.9114,1.2844,-2.0257,2.8805,3.7101,-0.84595,0.14119,-0.37952,0.81282,-1.132
2.908,1.285,-2.0272,2.8838,3.7056,-0.84624,0.14249,-0.37727,0.81017,-1.1327
2.9046,1.2856,-2.0287,2.887,3.701,-0.84652,0.14378,-0.375,0.8075,-1.1334
2.9013,1.2861,-2.0302,2.8903,3.6965,-0.84679,0.14507,-0.37274,0.80483,-1.1341
2.8979,1.2867,-2.0317,2.8935,3.692,-0.84706,0.14634,-0.37047,0.80215,-1.1348
2.8945,1.2873,-2.0332,2.8967,3.6874,-0.84733,0.14761,-0.3682,0.79947,-1.1355
2.8911,1.2879,-2.0346,2.8999,3.6829,-0.84759,0.14887,-0.36592,0.79678,-1.1362
2.8877,1.2885,-2.0361,2.903,3.6783,-0.84784,0.15012,-0.36364,0.79408,-1.1369
2.8843,1.2891,-2.0376,2.9062,3.6738,-0.84809,0.15136,-0.36136,0.79138,-1.1376
2.8809,1.2897,-2.039,2.9094,3.6692,-0.84834,0.1526,-0.35907,0.78867,-1.1383
2.8775,1.2903,-2.0404,2.9125,3.6647,-0.84858,0.15382,-0.35678,0.78595,-1.1389
2.8741,1.2909,-2.0418,2.9157,3.6601,-0.84882,0.15504,-0.35448,0.78323,-1.1396
2.8707,1.2916,-2.0433,2.9188,3.6555,-0.84905,0.15624,-0.35218,0.7805,-1.1403
2.8673,1.2922,-2.0447,2.9219,3.651,-0.84928,0.15744,-0.34988,0.77776,-1.141
2.8639,1.2928,-2.0461,2.925,3.6464,-0.84951,0.15863,-0.34758,0.77502,-1.1416
2.8605,1.2935,-2.0474,2.9281,3.6419,-0.84973,0.15981,-0.34527,0.77227,-1.1423
2.8571,1.2941,-2.0488,2.9312,3.6373,-0.84994,0.16098,-0.34296,0.76952,-1.1429
2.8537,1.2947,-2.0502,2.9343,3.6327,-0.85015,0.16214,-0.34064,0.76676,-1.1436
2.8503,1.2954,-2.0515,2.9373,3.6281,-0.85036,0.16329,-0.33833,0.76399,-1.1442
2.8469,1.296,-2.0529,2.9404,3.6236,-0.85056,0.16443,-0.33601,0.76122,-1.1449
2.8435,1.2967,-2.0542,2.9434,3.619,-0.85076,0.16556,-0.33368,0.75844,-1.1455
2.8401,1.2974,-2.0556,2.9464,3.6144,-0.85095,0.16669,-0.33135,0.75565,-1.1462
2.8367,1.298,-2.0569,2.9495,3.6098,-0.85114,0.1678,-0.32902,0.75286,-1.1468
2.8333,1.2987,-2.0582,2.9525,3.6052,-0.85132,0.1689,-0.32669,0.75007,-1.1474
2.8299,1.2994,-2.0595,2.9555,3.6006,-0.8515,0.16999,-0.32435,0.74726,-1.1481
2.8265,1.3001,-2.0608,2.9584,3.596,-0.85168,0.17107,-0.32201,0.74446,-1.1487
2.8231,1.3008,-2.0621,2.9614,3.5914,-0.85185,0.17215,-0.31967,0.74164,-1.1493
2.8197,1.3015,-2.0634,2.9644,3.5868,-0.85201,0.17321,-0.31732,0.73882,-1.1499
2.8163,1.3021,-2.0646,2.9673,3.5822,-0.85217,0.17426,-0.31497,0.736,-1.1505
2.8129,1.3028,-2.0659,2.9703,3.5776,-0.85233,0.1753,-0.31262,0.73316,-1.1512
2.8095,1.3035,-2.0671,2.9732,3.573,-0.85248,0.17633,-0.31026,0.73033,-1.1518
2.806,1.3043,-2.0684,2.9761,3.5684,-0.85262,0.17735,-0.30791,0.72748,-1.1524
2.8026,1.305,-2.0696,2.979,3.5638,-0.85277,0.17835,-0.30554,0.72463,-1.153
2.7992,1.3057,-2.0708,2.9819,3.5592,-0.8529,0.17935,-0.30318,0.72178,-1.1536
2.7958,1.3064,-2.072,2.9848,3.5546,-0.85304,0.18034,-0.30081,0.71892,-1.1541
2.7924,1.3071,-2.0732,2.9877,3.55,-0.85316,0.18131,-0.29844,0.71606,-1.1547
2.789,1.3079,-2.0744,2.9905,3.5453,-0.85329,0.18228,-0.29607,0.71319,-1.1553
2.7856,1.3086,-2.0756,2.9934,3.5407,-0.85341,0.18323,-0.2937,0.71031,-1.1559
2.7822,1.3093,-2.0767,2.9962,3.5361,-0.85352,0.18417,-0.29132,0.70743,-1.1565
2.7787,1.3101,-2.0779,2.999,3.5315,-0.85363,0.1851,-0.28894,0.70454,-1.1571
2.7753,1.3108,-2.0791,3.0018,3.5268,-0.85373,0.18602,-0.28656,0.70165,-1.1576
2.7719,1.3115,-2.0802,3.0046,3.5222,-0.85383,0.18693,-0.28417,0.69875,-1.1582
2.7685,1.3123,-2.0813,3.0074,3.5176,-0.85393,0.18782,-0.28178,0.69585,-1.1587
2.7651,1.313,-2.0825,3.0102,3.5129,-0.85402,0.1887,-0.27939,0.69294,-1.1593
2.7617,1.3138,-2.0836,3.013,3.5083,-0.85411,0.18958,-0.277,0.69003,-1.1599
2.7583,1.3146,-2.0847,3.0157,3.5037,-0.85419,0.19044,-0.2746,0.68711,-1.1604
2.7548,1.3153,-2.0858,3.0185,3.499,-0.85426,0.19128,-0.2722,0.68418,-1.161
2.7514,1.3161,-2.0868,3.0212,3.4944,-0.85433,0.19212,-0.2698,0.68126,-1.1615
2.748,1.3169,-2.0879,3.0239,3.4897,-0.8544,0.19294,-0.2674,0.67832,-1.162
2.7446,1.3176,-2.089,3.0266,3.4851,-0.85446,0.19375,-0.26499,0.67538,-1.1626
2.7412,1.3184,-2.09,3.0293,3.4804,-0.85452,0.19455,-0.26259,0.67244,-1.1631
2.7377,1.3192,-2.0911,3.032,3.4758,-0.85457,0.19534,-0.26018,0.66949,-1.1636
2.7343,1.32,-2.0921,3.0347,3.4711,-0.85462,0.19611,-0.25776,0.66654,-1.1642
2.7309,1.3208,-2.0931,3.0373,3.4665,-0.85467,0.19688,-0.25535,0.66358,-1.1647
2.7275,1.3216,-2.0942,3.04,3.4618,-0.85471,0.19762,-0.25293,0.66062,-1.1652
2.7241,1.3223,-2.0952,3.0426,3.4571,-0.85474,0.19836,-0.25051,0.65765,-1.1657
2.7207,1.3231,-2.0962,3.0452,3.4525,-0.85477,0.19908,-0.24809,0.65468,-1.1662
2.7172,1.3239,-2.0972,3.0479,3.4478,-0.85479,0.19979,-0.24567,0.6517,-1.1667
2.7138,1.3247,-2.0981,3.0505,3.4431,-0.85481,0.20049,-0.24324,0.64872,-1.1672
2.7104,1.3255,-2.0991,3.053,3.4385,-0.85483,0.20118,-0.24082,0.64573,-1.1677
2.707,1.3263,-2.1001,3.0556,3.4338,-0.85484,0.20185,-0.23839,0.64274,-1.1682
2.7036,1.3272,-2.101,3.0582,3.4291,-0.85484,0.20251,-0.23595,0.63974,-1.1687
2.7001,1.328,-2.1019,3.0607,3.4244,-0.85485,0.20315,-0.23352,0.63674,-1.1692
2.6967,1.3288,-2.1029,3.0633,3.4198,-0.85484,0.20378,-0.23108,0.63374,-1.1697
2.6933,1.3296,-2.1038,3.0658,3.4151,-0.85483,0.2044,-0.22865,0.63073,-1.1702
2.6899,1.3304,-2.1047,3.0683,3.4104,-0.85482,0.20501,-0.22621,0.62772,-1.1707
2.6865,1.3312,-2.1056,3.0708,3.4057,-0.8548,0.2056,-0.22377,0.6247,-1.1711
2.683,1.3321,-2.1065,3.0733,3.401,-0.85478,0.20618,-0.22132,0.62167,-1.1716
2.6796,1.3329,-2.1074,3.0758,3.3964,-0.85475,0.20674,-0.21888,0.61865,-1.1721
2.6762,1.3337,-2.1082,3.0783,3.3917,-0.85472,0.20729,-0.21643,0.61562,-1.1725
2.6728,1.3345,-2.1091,3.0807,3.387,-0.85468,0.20783,-0.21398,0.61258,-1.173
2.6694,1.3354,-2.11,3.0832,3.3823,-0.85464,0.20835,-0.21153,0.60954,-1.1734
2.6659,1.3362,-2.1108,3.0856,3.3776,-0.85459,0.20886,-0.20908,0.6065,-1.1739
2.6625,1.337,-2.1116,3.088,3.3729,-0.85454,0.20936,-0.20662,0.60345,-1.1743
2.6591,1.3379,-2.1125,3.0904,3.3682,-0.85448,0.20984,-0.20417,0.6004,-1.1748
2.6557,1.3387,-2.1133,3.0928,3.3635,-0.85442,0.21031,-0.20171,0.59734,-1.1752
2.6523,1.3396,-2.1141,3.0952,3.3588,-0.85436,0.21076,-0.19925,0.59428,-1.1756
2.6489,1.3404,-2.1149,3.0976,3.3541,-0.85429,0.2112,-0.19679,0.59122,-1.1761
2.6454,1.3413,-2.1156,3.0999,3.3494,-0.85421,0.21163,-0.19433,0.58815,-1.1765
2.642,1.3421,-2.1164,3.1023,3.3447,-0.85413,0.21204,-0.19187,0.58508,-1.1769
2.6386,1.343,-2.1172,3.1046,3.34,-0.85404,0.21243,-0.1894,0.582,-1.1773
2.6352,1.3438,-2.1179,3.1069,3.3353,-0.85395,0.21282,-0.18694,0.57893,-1.1778
2.6318,1.3447,-2.1187,3.1093,3.3305,-0.85386,0.21318,-0.18447,0.57584,-1.1782
2.6284,1.3455,-2.1194,3.1115,3.3258,-0.85376,0.21354,-0.182,0.57276,-1.1786
2.6249,1.3464,-2.1201,3.1138,3.3211,-0.85366,0.21387,-0.17953,0.56966,-1.179
2.6215,1.3472,-2.1208,3.1161,3.3164,-0.85355,0.2142,-0.17706,0.56657,-1.1794
2.6181,1.3481,-2.1215,3.1184,3.3117,-0.85343,0.21451,-0.17459,0.56347,-1.1798
2.6147,1.3489,-2.1222,3.1206,3.307,-0.85331,0.2148,-0.17211,0.56037,-1.1802
2.6113,1.3498,-2.1229,3.1228,3.3022,-0.85319,0.21508,-0.16964,0.55727,-1.1806
2.6079,1.3507,-2.1236,3.1251,3.2975,-0.85306,0.21535,-0.16716,0.55416,-1.181
2.6045,1.3515,-2.1243,3.1273,3.2928,-0.85293,0.2156,-0.16468,0.55105,-1.1813
2.6011,1.3524,-2.1249,3.1295,3.2881,-0.85279,0.21583,-0.16221,0.54793,-1.1817
2.5976,1.3532,-2.1256,3.1317,3.2833,-0.85264,0.21605,-0.15973,0.54481,-1.1821
2.5942,1.3541,-2.1262,3.1338,3.2786,-0.8525,0.21625,-0.15725,0.54169,-1.1825
2.5908,1.355,-2.1268,3.136,3.2739,-0.85234,0.21644,-0.15476,0.53856,-1.1828
2.5874,1.3558,-2.1274,3.1381,3.2691,-0.85219,0.21662,-0.15228,0.53544,-1.1832
2.584,1.3567,-2.128,3.1403,3.2644,-0.85202,0.21678,-0.1498,0.5323,-1.1836
2.5806,1.3576,-2.1286,3.1424,3.2597,-0.85186,0.21692,-0.14731,0.52917,-1.1839
2.5772,1.3584,-2.1292,3.1445,3.2549,-0.85168,0.21705,-0.14483,0.52603,-1.1843
2.5738,1.3593,-2.1298,3.1466,3.2502,-0.85151,0.21716,-0.14234,0.52289,-1.1846
2.5704,1.3602,-2.1303,3.1487,3.2455,-0.85132,0.21726,-0.13985,0.51974,-1.1849
2.567,1.3611,-2.1309,3.1508,3.2407,-0.85114,0.21735,-0.13736,0.5166,-1.1853
2.5636,1.3619,-2.1314,3.1528,3.236,-0.85094,0.21741,-0.13488,0.51345,-1.1856
2.5602,1.3628,-2.132,3.1549,3.2312,-0.85075,0.21747,-0.13239,0.51029,-1.186
2.5568,1.3637,-2.1325,3.1569,3.2265,-0.85055,0.2175,-0.1299,0.50713,-1.1863
2.5534,1.3645,-2.133,3.1589,3.2217,-0.85034,0.21752,-0.1274,0.50398,-1.1866
2.55,1.3654,-2.1335,3.1609,3.217,-0.85013,0.21753,-0.12491,0.50081,-1.1869
2.5466,1.3663,-2.134,3.1629,3.2122,-0.84991,0.21752,-0.12242,0.49765,-1.1872
2.5432,1.3671,-2.1345,3.1649,3.2075,-0.84969,0.21749,-0.11993,0.49448,-1.1876
2.5398,1.368,-2.135,3.1669,3.2027,-0.84946,0.21745,-0.11743,0.49131,-1.1879
2.5364,1.3689,-2.1354,3.1689,3.198,-0.84923,0.21739,-0.11494,0.48814,-1.1882
2.533,1.3698,-2.1359,3.1708,3.1932,-0.849,0.21732,-0.11244,0.48496,-1.1885
2.5296,1.3706,-2.1363,3.1727,3.1885,-0.84875,0.21723,-0.10995,0.48178,-1.1888
2.5262,1.3715,-2.1368,3.1747,3.1837,-0.84851,0.21713,-0.10745,0.4786,-1.1891
2.5228,1.3724,-2.1372,3.1766,3.179,-0.84826,0.21701,-0.10496,0.47542,-1.1894
2.5194,1.3732,-2.1376,3.1785,3.1742,-0.848,0.21687,-0.10246,0.47223,-1.1896
2.516,1.3741,-2.138,3.1803,3.1695,-0.84774,0.21672,-0.099965,0.46904,-1.1899
2.5126,1.375,-2.1384,3.1822,3.1647,-0.84748,0.21655,-0.097467,0.46585,-1.1902
2.5092,1.3758,-2.1388,3.1841,3.1599,-0.84721,0.21636,-0.09497,0.46266,-1.1905
2.5058,1.3767,-2.1392,3.1859,3.1552,-0.84693,0.21616,-0.092472,0.45946,-1.1907
2.5025,1.3776,-2.1395,3.1877,3.1504,-0.84665,0.21595,-0.089974,0.45626,-1.191
2.4991,1.3784,-2.1399,3.1896,3.1456,-0.84637,0.21572,-0.087476,0.45306,-1.1913
2.4957,1.3793,-2.1402,3.1914,3.1409,-0.84608,0.21547,-0.084978,0.44986,-1.1915
2.4923,1.3801,-2.1406,3.1932,3.1361,-0.84578,0.2152,-0.082479,0.44665,-1.1918
2.4889,1.381,-2.1409,3.1949,3.1313,-0.84548,0.21492,-0.07998,0.44344,-1.192
2.4855,1.3819,-2.1412,3.1967,3.1266,-0.84518,0.21463,-0.077482,0.44024,-1.1923
2.4822,1.3827,-2.1415,3.1985,3.1218,-0.84487,0.21431,-0.074983,0.43702,-1.1925
2.4788,1.3836,-2.1418,3.2002,3.117,-0.84455,0.21398,-0.072484,0.43381,-1.1928
2.4754,1.3844,-2.1421,3.2019,3.1123,-0.84423,0.21364,-0.069985,0.43059,-1.193
2.472,1.3853,-2.1424,3.2037,3.1075,-0.84391,0.21328,-0.067487,0.42738,-1.1932
2.4686,1.3861,-2.1426,3.2054,3.1027,-0.84358,0.2129,-0.064988,0.42416,-1.1935
2.4653,1.387,-2.1429,3.207,3.0979,-0.84324,0.21251,-0.062489,0.42094,-1.1937
2.4619,1.3878,-2.1431,3.2087,3.0932,-0.8429,0.2121,-0.059991,0.41771,-1.1939
2.4585,1.3887,-2.1434,3.2104,3.0884,-0.84256,0.21167,-0.057492,0.41449,-1.1941
2.4552,1.3895,-2.1436,3.212,3.0836,-0.84221,0.21123,-0.054994,0.41126,-1.1943
2.4518,1.3904,-2.1438,3.2137,3.0788,-0.84186,0.21077,-0.052496,0.40803,-1.1945
2.4484,1.3912,-2.144,3.2153,3.0741,-0.8415,0.2103,-0.049998,0.4048,-1.1948
2.4451,1.3921,-2.1442,3.2169,3.0693,-0.84113,0.2098,-0.047501,0.40157,-1.195
2.4417,1.3929,-2.1444,3.2185,3.0645,-0.84076,0.2093,-0.045004,0.39834,-1.1952
2.4383,1.3937,-2.1446,3.2201,3.0597,-0.84039,0.20877,-0.042507,0.3951,-1.1953
2.435,1.3946,-2.1447,3.2217,3.0549,-0.84001,0.20823,-0.040011,0.39186,-1.1955
2.4316,1.3954,-2.1449,3.2232,3.0502,-0.83963,0.20768,-0.037515,0.38863,-1.1957
2.4283,1.3962,-2.145,3.2248,3.0454,-0.83924,0.2071,-0.035019,0.38539,-1.1959
2.4249,1.3971,-2.1452,3.2263,3.0406,-0.83884,0.20651,-0.032524,0.38215,-1.1961
2.4215,1.3979,-2.1453,3.2278,3.0358,-0.83845,0.20591,-0.030029,0.3789,-1.1963
2.4182,1.3987,-2.1454,3.2294,3.031,-0.83804,0.20529,-0.027535,0.37566,-1.1964
2.4148,1.3995,-2.1455,3.2308,3.0262,-0.83763,0.20465,-0.025041,0.37241,-1.1966
2.4115,1.4003,-2.1456,3.2323,3.0214,-0.83722,0.20399,-0.022548,0.36917,-1.1967
2.4081,1.4012,-2.1457,3.2338,3.0167,-0.8368,0.20332,-0.020056,0.36592,-1.1969
2.4048,1.402,-2.1458,3.2353,3.0119,-0.83638,0.20264,-0.017564,0.36267,-1.1971
2.4015,1.4028,-2.1458,3.2367,3.0071,-0.83595,0.20193,-0.015073,0.35942,-1.1972
2.3981,1.4036,-2.1459,3.2381,3.0023,-0.83552,0.20121,-0.012583,0.35617,-1.1974
2.3948,1.4044,-2.1459,3.2396,2.9975,-0.83508,0.20048,-0.010093,0.35292,-1.1975
2.3914,1.4052,-2.146,3.241,2.9927,-0.83463,0.19973,-0.007604,0.34966,-1.1976
2.3881,1.406,-2.146,3.2423,2.9879,-0.83419,0.19896,-0.0051158,0.34641,-1.1978
2.3848,1.4068,-2.146,3.2437,2.9831,-0.83373,0.19817,-0.0026285,0.34315,-1.1979
2.3814,1.4076,-2.146,3.2451,2.9783,-0.83327,0.19737,-0.00014202,0.3399,-1.198
2.3781,1.4084,-2.146,3.2464,2.9735,-0.83281,0.19655,0.0023436,0.33664,-1.1981
2.3748,1.4091,-2.146,3.2478,2.9688,-0.83234,0.19572,0.0048283,0.33338,-1.1983
2.3714,1.4099,-2.146,3.2491,2.964,-0.83187,0.19487,0.007312,0.33012,-1.1984
2.3681,1.4107,-2.1459,3.2504,2.9592,-0.83139,0.194,0.0097948,0.32686,-1.1985
2.3648,1.4115,-2.1459,3.2517,2.9544,-0.83091,0.19312,0.012277,0.3236,-1.1986
2.3615,1.4122,-2.1459,3.253,2.9496,-0.83042,0.19222,0.014757,0.32034,-1.1987
2.3581,1.413,-2.1458,3.2543,2.9448,-0.82993,0.19131,0.017237,0.31708,-1.1988
2.3548,1.4138,-2.1457,3.2556,2.94,-0.82943,0.19038,0.019716,0.31382,-1.1989
2.3515,1.4145,-2.1456,3.2568,2.9352,-0.82893,0.18943,0.022193,0.31055,-1.199
2.3482,1.4153,-2.1455,3.258,2.9304,-0.82842,0.18846,0.024669,0.30729,-1.1991
2.3449,1.416,-2.1454,3.2593,2.9256,-0.82791,0.18749,0.027144,0.30403,-1.1992
2.3416,1.4168,-2.1453,3.2605,2.9208,-0.82739,0.18649,0.029618,0.30076,-1.1992
2.3383,1.4175,-2.1452,3.2617,2.916,-0.82686,0.18548,0.032091,0.2975,-1.1993
2.3349,1.4183,-2.1451,3.2629,2.9112,-0.82634,0.18445,0.034563,0.29423,-1.1994
2.3316,1.419,-2.1449,3.264,2.9064,-0.8258,0.18341,0.037033,0.29097,-1.1995
2.3283,1.4197,-2.1448,3.2652,2.9016,-0.82527,0.18235,0.039501,0.2877,-1.1995
2.325,1.4205,-2.1446,3.2663,2.8968,-0.82472,0.18127,0.041969,0.28443,-1.1996
2.3217,1.4212,-2.1444,3.2675,2.892,-0.82418,0.18018,0.044435,0.28117,-1.1996
2.3184,1.4219,-2.1442,3.2686,2.8872,-0.82362,0.17907,0.046899,0.2779,-1.1997
2.3152,1.4226,-2.1441,3.2697,2.8824,-0.82307,0.17795,0.049363,0.27463,-1.1997
2.3119,1.4233,-2.1439,3.2708,2.8776,-0.8225,0.17681,0.051824,0.27137,-1.1998
2.3086,1.424,-2.1436,3.2718,2.8728,-0.82194,0.17565,0.054284,0.2681,-1.1998
2.3053,1.4247,-2.1434,3.2729,2.868,-0.82136,0.17448,0.056743,0.26483,-1.1999
2.302,1.4254,-2.1432,3.274,2.8632,-0.82078,0.17329,0.0592,0.26157,-1.1999
2.2987,1.4261,-2.1429,3.275,2.8584,-0.8202,0.17209,0.061656,0.2583,-1.1999
2.2954,1.4268,-2.1427,3.276,2.8536,-0.81961,0.17087,0.064109,0.25503,-1.1999
2.2922,1.4275,-2.1424,3.277,2.8488,-0.81902,0.16964,0.066562,0.25177,-1.2
2.2889,1.4282,-2.1422,3.278,2.844,-0.81842,0.16839,0.069012,0.2485,-1.2
2.2856,1.4288,-2.1419,3.279,2.8392,-0.81782,0.16712,0.071461,0.24523,-1.2
2.2823,1.4295,-2.1416,3.28,2.8344,-0.81722,0.16584,0.073908,0.24197,-1.2
2.2791,1.4302,-2.1413,3.281,2.8296,-0.8166,0.16454,0.076353,0.2387,-1.2
2.2758,1.4308,-2.141,3.2819,2.8248,-0.81599,0.16323,0.078797,0.23543,-1.2
2.2725,1.4315,-2.1407,3.2829,2.82,-0.81536,0.1619,0.081238,0.23217,-1.2
2.2693,1.4321,-2.1403,3.2838,2.8152,-0.81474,0.16056,0.083678,0.2289,-1.2
2.266,1.4328,-2.14,3.2847,2.8104,-0.8141,0.1592,0.086116,0.22564,-1.2
2.2628,1.4334,-2.1396,3.2856,2.8056,-0.81347,0.15783,0.088552,0.22238,-1.2
2.2595,1.434,-2.1393,3.2865,2.8008,-0.81282,0.15644,0.090986,0.21911,-1.1999
2.2563,1.4346,-2.1389,3.2873,2.796,-0.81218,0.15503,0.093418,0.21585,-1.1999
2.253,1.4353,-2.1385,3.2882,2.7912,-0.81152,0.15361,0.095848,0.21259,-1.1999
2.2498,1.4359,-2.1381,3.289,2.7864,-0.81087,0.15218,0.098275,0.20932,-1.1999
2.2465,1.4365,-2.1377,3.2899,2.7816,-0.81021,0.15073,0.1007,0.20606,-1.1998
2.2433,1.4371,-2.1373,3.2907,2.7768,-0.80954,0.14926,0.10313,0.2028,-1.1998
2.2401,1.4377,-2.1369,3.2915,2.772,-0.80887,0.14778,0.10555,0.19954,-1.1997
2.2368,1.4383,-2.1365,3.2923,2.7672,-0.80819,0.14629,0.10797,0.19628,-1.1997
2.2336,1.4388,-2.1361,3.2931,2.7624,-0.80751,0.14478,0.11038,0.19302,-1.1997
2.2304,1.4394,-2.1356,3.2938,2.7576,-0.80682,0.14325,0.1128,0.18977,-1.1996
2.2271,1.44,-2.1352,3.2946,2.7528,-0.80613,0.14171,0.11521,0.18651,-1.1995
2.2239,1.4405,-2.1347,3.2953,2.748,-0.80543,0.14016,0.11762,0.18325,-1.1995
2.2207,1.4411,-2.1342,3.296,2.7432,-0.80473,0.13859,0.12003,0.18,-1.1994
2.2175,1.4417,-2.1337,3.2968,2.7384,-0.80402,0.137,0.12244,0.17674,-1.1993
2.2143,1.4422,-2.1332,3.2975,2.7336,-0.80331,0.1354,0.12484,0.17349,-1.1993
2.2111,1.4427,-2.1327,3.2981,2.7288,-0.8026,0.13379,0.12724,0.17024,-1.1992
2.2078,1.4433,-2.1322,3.2988,2.724,-0.80187,0.13216,0.12964,0.16699,-1.1991
2.2046,1.4438,-2.1317,3.2995,2.7193,-0.80115,0.13052,0.13204,0.16374,-1.199
2.2014,1.4443,-2.1312,3.3001,2.7145,-0.80042,0.12886,0.13443,0.16049,-1.1989
2.1982,1.4448,-2.1306,3.3008,2.7097,-0.79968,0.12719,0.13682,0.15724,-1.1988
2.195,1.4453,-2.1301,3.3014,2.7049,-0.79894,0.12551,0.13921,0.154,-1.1987
2.1918,1.4458,-2.1295,3.302,2.7001,-0.79819,0.12381,0.1416,0.15075,-1.1986
2.1887,1.4463,-2.1289,3.3026,2.6953,-0.79744,0.12209,0.14398,0.14751,-1.1985
2.1855,1.4468,-2.1284,3.3032,2.6905,-0.79668,0.12037,0.14636,0.14427,-1.1984
2.1823,1.4473,-2.1278,3.3037,2.6857,-0.79592,0.11863,0.14874,0.14103,-1.1983
2.1791,1.4478,-2.1272,3.3043,2.6809,-0.79516,0.11687,0.15111,0.13779,-1.1982
2.1759,1.4482,-2.1266,3.3048,2.6761,-0.79439,0.1151,0.15349,0.13455,-1.1981
2.1727,1.4487,-2.1259,3.3054,2.6713,-0.79361,0.11332,0.15586,0.13131,-1.1979
2.1696,1.4491,-2.1253,3.3059,2.6665,-0.79283,0.11152,0.15822,0.12808,-1.1978
2.1664,1.4496,-2.1247,3.3064,2.6617,-0.79204,0.10971,0.16059,0.12485,-1.1977
2.1632,1.45,-2.124,3.3069,2.6569,-0.79125,0.10789,0.16295,0.12162,-1.1975
2.1601,1.4504,-2.1234,3.3074,2.6521,-0.79046,0.10605,0.16531,0.11839,-1.1974
2.1569,1.4509,-2.1227,3.3078,2.6474,-0.78965,0.1042,0.16766,0.11516,-1.1973
2.1538,1.4513,-2.122,3.3083,2.6426,-0.78885,0.10233,0.17002,0.11193,-1.1971
2.1506,1.4517,-2.1213,3.3087,2.6378,-0.78804,0.10045,0.17237,0.10871,-1.197
2.1475,1.4521,-2.1206,3.3092,2.633,-0.78722,0.098563,0.17471,0.10548,-1.1968
2.1443,1.4525,-2.1199,3.3096,2.6282,-0.7864,0.096659,0.17706,0.10226,-1.1966
2.1412,1.4528,-2.1192,3.31,2.6234,-0.78558,0.094741,0.1794,0.099043,-1.1965
2.138,1.4532,-2.1185,3.3104,2.6186,-0.78475,0.092811,0.18174,0.095826,-1.1963
2.1349,1.4536,-2.1178,3.3108,2.6139,-0.78391,0.090868,0.18407,0.092611,-1.1961
2.1317,1.4539,-2.117,3.3111,2.6091,-0.78307,0.088911,0.18641,0.089398,-1.1959
2.1286,1.4543,-2.1163,3.3115,2.6043,-0.78223,0.086943,0.18873,0.086186,-1.1958
2.1255,1.4546,-2.1155,3.3118,2.5995,-0.78138,0.084961,0.19106,0.082977,-1.1956
2.1224,1.455,-2.1148,3.3121,2.5947,-0.78052,0.082967,0.19338,0.07977,-1.1954
2.1192,1.4553,-2.114,3.3124,2.5899,-0.77966,0.08096,0.1957,0.076565,-1.1952
2.1161,1.4556,-2.1132,3.3127,2.5852,-0.7788,0.078941,0.19802,0.073362,-1.195
2.113,1.4559,-2.1124,3.313,2.5804,-0.77793,0.076909,0.20033,0.070162,-1.1948
2.1099,1.4562,-2.1116,3.3133,2.5756,-0.77705,0.074865,0.20264,0.066963,-1.1946
2.1068,1.4565,-2.1108,3.3136,2.5708,-0.77617,0.072809,0.20494,0.063767,-1.1944
2.1037,1.4568,-2.1099,3.3138,2.566,-0.77529,0.070741,0.20725,0.060574,-1.1942
2.1006,1.4571,-2.1091,3.3141,2.5613,-0.7744,0.068661,0.20955,0.057382,-1.194
2.0975,1.4574,-2.1083,3.3143,2.5565,-0.7735,0.066569,0.21184,0.054193,-1.1937
2.0944,1.4576,-2.1074,3.3145,2.5517,-0.77261,0.064465,0.21413,0.051007,-1.1935
2.0913,1.4579,-2.1066,3.3147,2.5469,-0.7717,0.062349,0.21642,0.047823,-1.1933
2.0882,1.4581,-2.1057,3.3149,2.5422,-0.77079,0.060222,0.21871,0.044641,-1.1931
2.0852,1.4584,-2.1048,3.315,2.5374,-0.76988,0.058083,0.22099,0.041462,-1.1928
2.0821,1.4586,-2.1039,3.3152,2.5326,-0.76896,0.055933,0.22327,0.038285,-1.1926
2.079,1.4588,-2.103,3.3153,2.5279,-0.76804,0.053771,0.22554,0.035111,-1.1923
2.0759,1.459,-2.1021,3.3155,2.5231,-0.76711,0.051598,0.22781,0.03194,-1.1921
2.0729,1.4592,-2.1012,3.3156,2.5183,-0.76617,0.049414,0.23008,0.028772,-1.1918
2.0698,1.4594,-2.1003,3.3157,2.5136,-0.76524,0.047218,0.23235,0.025606,-1.1916
2.0667,1.4596,-2.0993,3.3158,2.5088,-0.76429,0.045012,0.23461,0.022442,-1.1913
2.0637,1.4598,-2.0984,3.3159,2.504,-0.76335,0.042795,0.23686,0.019282,-1.1911
2.0606,1.4599,-2.0974,3.316,2.4993,-0.76239,0.040567,0.23911,0.016125,-1.1908
2.0576,1.4601,-2.0965,3.316,2.4945,-0.76143,0.038328,0.24136,0.01297,-1.1905
2.0545,1.4603,-2.0955,3.3161,2.4897,-0.76047,0.036078,0.24361,0.0098181,-1.1902
2.0515,1.4604,-2.0945,3.3161,2.485,-0.7595,0.033818,0.24585,0.0066692,-1.19
2.0485,1.4605,-2.0935,3.3161,2.4802,-0.75853,0.031548,0.24809,0.0035233,-1.1897
2.0454,1.4606,-2.0926,3.3161,2.4755,-0.75756,0.029267,0.25032,0.00038037,-1.1894
2.0424,1.4608,-2.0915,3.3161,2.4707,-0.75657,0.026976,0.25255,-0.0027595,-1.1891
2.0394,1.4609,-2.0905,3.3161,2.4659,-0.75559,0.024675,0.25478,-0.0058963,-1.1888
2.0364,1.461,-2.0895,3.3161,2.4612,-0.75459,0.022364,0.257,-0.0090301,-1.1885
2.0333,1.461,-2.0885,3.316,2.4564,-0.7536,0.020043,0.25921,-0.012161,-1.1882
2.0303,1.4611,-2.0874,3.316,2.4517,-0.7526,0.017712,0.26143,-0.015288,-1.1879
2.0273,1.4612,-2.0864,3.3159,2.4469,-0.75159,0.015372,0.26364,-0.018412,-1.1876
2.0243,1.4612,-2.0853,3.3158,2.4422,-0.75058,0.013022,0.26584,-0.021533,-1.1873
2.0213,1.4613,-2.0843,3.3157,2.4374,-0.74956,0.010662,0.26804,-0.024651,-1.187
2.0183,1.4613,-2.0832,3.3156,2.4327,-0.74854,0.0082934,0.27024,-0.027765,-1.1866
2.0153,1.4614,-2.0821,3.3155,2.4279,-0.74752,0.0059152,0.27243,-0.030876,-1.1863
2.0123,1.4614,-2.081,3.3154,2.4232,-0.74649,0.0035278,0.27462,-0.033984,-1.186
2.0094,1.4614,-2.0799,3.3152,2.4185,-0.74545,0.0011313,0.27681,-0.037088,-1.1856
2.0064,1.4614,-2.0788,3.3151,2.4137,-0.74441,-0.0012741,0.27899,-0.040189,-1.1853
2.0034,1.4614,-2.0777,3.3149,2.409,-0.74337,-0.0036883,0.28116,-0.043286,-1.185
2.0004,1.4614,-2.0765,3.3147,2.4042,-0.74232,-0.0061113,0.28334,-0.04638,-1.1846
1.9975,1.4613,-2.0754,3.3146,2.3995,-0.74126,-0.0085429,0.2855,-0.04947,-1.1843
1.9945,1.4613,-2.0743,3.3143,2.3948,-0.7402,-0.010983,0.28767,-0.052557,-1.1839
1.9915,1.4612,-2.0731,3.3141,2.39,-0.73914,-0.013431,0.28983,-0.05564,-1.1835
1.9886,1.4612,-2.0719,3.3139,2.3853,-0.73807,-0.015888,0.29198,-0.058719,-1.1832
1.9856,1.4611,-2.0708,3.3137,2.3806,-0.737,-0.018353,0.29413,-0.061795,-1.1828
1.9827,1.461,-2.0696,3.3134,2.3758,-0.73592,-0.020826,0.29628,-0.064867,-1.1824
1.9798,1.4609,-2.0684,3.3131,2.3711,-0.73483,-0.023307,0.29842,-0.067935,-1.1821
1.9768,1.4608,-2.0672,3.3129,2.3664,-0.73375,-0.025796,0.30055,-0.071,-1.1817
1.9739,1.4607,-2.066,3.3126,2.3616,-0.73265,-0.028292,0.30269,-0.07406,-1.1813
1.971,1.4606,-2.0648,3.3123,2.3569,-0.73156,-0.030796,0.30481,-0.077117,-1.1809
1.968,1.4605,-2.0635,3.312,2.3522,-0.73045,-0.033308,0.30694,-0.08017,-1.1805
1.9651,1.4604,-2.0623,3.3116,2.3475,-0.72935,-0.035827,0.30905,-0.083219,-1.1801
1.9622,1.4602,-2.0611,3.3113,2.3428,-0.72823,-0.038353,0.31117,-0.086264,-1.1798
1.9593,1.46,-2.0598,3.3109,2.338,-0.72712,-0.040886,0.31328,-0.089305,-1.1793
1.9564,1.4599,-2.0586,3.3106,2.3333,-0.726,-0.043426,0.31538,-0.092342,-1.1789
1.9535,1.4597,-2.0573,3.3102,2.3286,-0.72487,-0.045973,0.31748,-0.095374,-1.1785
1.9506,1.4595,-2.056,3.3098,2.3239,-0.72374,-0.048527,0.31958,-0.098403,-1.1781
1.9477,1.4593,-2.0547,3.3094,2.3192,-0.7226,-0.051087,0.32167,-0.10143,-1.1777
1.9448,1.4591,-2.0535,3.309,2.3145,-0.72146,-0.053654,0.32375,-0.10445,-1.1773
1.9419,1.4589,-2.0522,3.3086,2.3098,-0.72032,-0.056227,0.32583,-0.10746,-1.1769
1.939,1.4586,-2.0508,3.3081,2.3051,-0.71917,-0.058807,0.32791,-0.11048,-1.1764
1.9362,1.4584,-2.0495,3.3077,2.3004,-0.71801,-0.061393,0.32998,-0.11348,-1.176
1.9333,1.4582,-2.0482,3.3072,2.2957,-0.71685,-0.063984,0.33205,-0.11649,-1.1756
1.9304,1.4579,-2.0469,3.3068,2.291,-0.71569,-0.066582,0.33411,-0.11949,-1.1751
1.9276,1.4576,-2.0455,3.3063,2.2863,-0.71452,-0.069185,0.33616,-0.12248,-1.1747
1.9247,1.4573,-2.0442,3.3058,2.2816,-0.71335,-0.071794,0.33821,-0.12547,-1.1742
1.9219,1.4571,-2.0428,3.3053,2.2769,-0.71217,-0.074409,0.34026,-0.12846,-1.1738
1.919,1.4567,-2.0415,3.3048,2.2722,-0.71099,-0.077029,0.3423,-0.13144,-1.1733
1.9162,1.4564,-2.0401,3.3042,2.2675,-0.7098,-0.079654,0.34434,-0.13442,-1.1729
1.9133,1.4561,-2.0387,3.3037,2.2628,-0.70861,-0.082284,0.34637,-0.13739,-1.1724
1.9105,1.4558,-2.0373,3.3031,2.2581,-0.70741,-0.084919,0.34839,-0.14036,-1.1719
1.9077,1.4554,-2.0359,3.3026,2.2534,-0.70621,-0.087559,0.35042,-0.14332,-1.1715
1.9049,1.4551,-2.0345,3.302,2.2487,-0.705,-0.090204,0.35243,-0.14628,-1.171
1.902,1.4547,-2.0331,3.3014,2.244,-0.70379,-0.092853,0.35444,-0.14923,-1.1705
1.8992,1.4543,-2.0317,3.3008,2.2394,-0.70257,-0.095507,0.35645,-0.15218,-1.17
1.8964,1.4539,-2.0303,3.3002,2.2347,-0.70135,-0.098165,0.35845,-0.15513,-1.1695
1.8936,1.4535,-2.0288,3.2995,2.23,-0.70013,-0.10083,0.36044,-0.15807,-1.169
1.8908,1.4531,-2.0274,3.2989,2.2253,-0.6989,-0.10349,0.36243,-0.161,-1.1686
1.888,1.4527,-2.0259,3.2983,2.2207,-0.69766,-0.10616,0.36442,-0.16393,-1.1681
1.8852,1.4523,-2.0245,3.2976,2.216,-0.69642,-0.10884,0.3664,-0.16686,-1.1676
1.8825,1.4518,-2.023,3.2969,2.2113,-0.69518,-0.11152,0.36837,-0.16978,-1.167
1.8797,1.4514,-2.0215,3.2962,2.2066,-0.69393,-0.1142,0.37034,-0.1727,-1.1665
1.8769,1.4509,-2.02,3.2955,2.202,-0.69268,-0.11688,0.3723,-0.17561,-1.166
1.8741,1.4505,-2.0185,3.2948,2.1973,-0.69142,-0.11957,0.37426,-0.17851,-1.1655
1.8714,1.45,-2.017,3.2941,2.1927,-0.69016,-0.12226,0.37621,-0.18141,-1.165
1.8686,1.4495,-2.0155,3.2934,2.188,-0.68889,-0.12496,0.37816,-0.18431,-1.1645
1.8659,1.449,-2.014,3.2926,2.1833,-0.68762,-0.12766,0.3801,-0.1872,-1.1639
1.8631,1.4485,-2.0125,3.2919,2.1787,-0.68634,-0.13036,0.38204,-0.19009,-1.1634
1.8604,1.4479,-2.0109,3.2911,2.174,-0.68506,-0.13306,0.38397,-0.19297,-1.1629
1.8576,1.4474,-2.0094,3.2903,2.1694,-0.68378,-0.13576,0.38589,-0.19584,-1.1623
1.8549,1.4469,-2.0079,3.2895,2.1647,-0.68249,-0.13847,0.38781,-0.19871,-1.1618
1.8522,1.4463,-2.0063,3.2887,2.1601,-0.68119,-0.14118,0.38972,-0.20158,-1.1612
1.8494,1.4457,-2.0047,3.2879,2.1554,-0.67989,-0.14389,0.39163,-0.20444,-1.1607
1.8467,1.4451,-2.0032,3.2871,2.1508,-0.67859,-0.14661,0.39354,-0.20729,-1.1601
1.844,1.4445,-2.0016,3.2863,2.1462,-0.67728,-0.14932,0.39543,-0.21014,-1.1596
1.8413,1.4439,-2,3.2854,2.1415,-0.67597,-0.15204,0.39732,-0.21298,-1.159
1.8386,1.4433,-1.9984,3.2846,2.1369,-0.67465,-0.15476,0.39921,-0.21582,-1.1584
1.8359,1.4427,-1.9968,3.2837,2.1323,-0.67333,-0.15748,0.40109,-0.21866,-1.1578
1.8332,1.4421,-1.9952,3.2828,2.1276,-0.672,-0.1602,0.40296,-0.22148,-1.1573
1.8305,1.4414,-1.9936,3.2819,2.123,-0.67067,-0.16292,0.40483,-0.22431,-1.1567
1.8279,1.4408,-1.992,3.281,2.1184,-0.66934,-0.16564,0.40669,-0.22712,-1.1561
1.8252,1.4401,-1.9903,3.2801,2.1138,-0.66799,-0.16837,0.40855,-0.22993,-1.1555
1.8225,1.4394,-1.9887,3.2792,2.1091,-0.66665,-0.17109,0.4104,-0.23274,-1.1549
1.8199,1.4387,-1.9871,3.2783,2.1045,-0.6653,-0.17382,0.41224,-0.23554,-1.1543
1.8172,1.438,-1.9854,3.2773,2.0999,-0.66395,-0.17654,0.41408,-0.23833,-1.1537
1.8145,1.4373,-1.9837,3.2763,2.0953,-0.66259,-0.17927,0.41592,-0.24112,-1.1531
1.8119,1.4366,-1.9821,3.2754,2.0907,-0.66122,-0.18199,0.41774,-0.24391,-1.1525
1.8092,1.4359,-1.9804,3.2744,2.0861,-0.65986,-0.18472,0.41957,-0.24668,-1.1519
1.8066,1.4351,-1.9787,3.2734,2.0815,-0.65849,-0.18745,0.42138,-0.24946,-1.1513
1.804,1.4344,-1.977,3.2724,2.0769,-0.65711,-0.19017,0.42319,-0.25222,-1.1507
1.8014,1.4336,-1.9753,3.2714,2.0722,-0.65573,-0.1929,0.42499,-0.25498,-1.1501
1.7987,1.4328,-1.9736,3.2704,2.0677,-0.65434,-0.19562,0.42679,-0.25774,-1.1494
1.7961,1.432,-1.9719,3.2693,2.0631,-0.65295,-0.19834,0.42858,-0.26048,-1.1488
1.7935,1.4312,-1.9702,3.2683,2.0585,-0.65156,-0.20107,0.43037,-0.26323,-1.1482
1.7909,1.4304,-1.9685,3.2672,2.0539,-0.65016,-0.20379,0.43214,-0.26596,-1.1475
1.7883,1.4296,-1.9667,3.2661,2.0493,-0.64875,-0.20651,0.43392,-0.26869,-1.1469
1.7857,1.4288,-1.965,3.2651,2.0447,-0.64735,-0.20923,0.43568,-0.27142,-1.1463
1.7831,1.4279,-1.9633,3.264,2.0401,-0.64593,-0.21194,0.43744,-0.27414,-1.1456
1.7806,1.4271,-1.9615,3.2629,2.0355,-0.64452,-0.21466,0.4392,-0.27685,-1.145
1.778,1.4262,-1.9597,3.2618,2.0309,-0.6431,-0.21738,0.44095,-0.27956,-1.1443
1.7754,1.4253,-1.958,3.2606,2.0264,-0.64167,-0.22009,0.44269,-0.28226,-1.1436
1.7728,1.4245,-1.9562,3.2595,2.0218,-0.64024,-0.2228,0.44442,-0.28495,-1.143
1.7703,1.4236,-1.9544,3.2584,2.0172,-0.63881,-0.22551,0.44615,-0.28764,-1.1423
1.7677,1.4226,-1.9526,3.2572,2.0127,-0.63737,-0.22821,0.44788,-0.29032,-1.1416
1.7652,1.4217,-1.9508,3.256,2.0081,-0.63592,-0.23092,0.44959,-0.293,-1.141
1.7626,1.4208,-1.949,3.2549,2.0035,-0.63448,-0.23362,0.4513,-0.29567,-1.1403
1.7601,1.4199,-1.9472,3.2537,1.999,-0.63302,-0.23631,0.45301,-0.29833,-1.1396
1.7576,1.4189,-1.9454,3.2525,1.9944,-0.63157,-0.23901,0.4547,-0.30099,-1.1389
1.7551,1.4179,-1.9436,3.2513,1.9899,-0.63011,-0.2417,0.45639,-0.30364,-1.1382
1.7525,1.417,-1.9418,3.25,1.9853,-0.62864,-0.24439,0.45808,-0.30629,-1.1375
1.75,1.416,-1.9399,3.2488,1.9808,-0.62717,-0.24708,0.45976,-0.30893,-1.1368
1.7475,1.415,-1.9381,3.2476,1.9762,-0.6257,-0.24976,0.46143,-0.31156,-1.1361
1.745,1.414,-1.9362,3.2463,1.9717,-0.62422,-0.25244,0.46309,-0.31419,-1.1354
1.7425,1.413,-1.9344,3.2451,1.9671,-0.62273,-0.25511,0.46475,-0.3168,-1.1347
1.74,1.412,-1.9325,3.2438,1.9626,-0.62125,-0.25778,0.46641,-0.31942,-1.134
1.7376,1.4109,-1.9306,3.2425,1.9581,-0.61976,-0.26045,0.46805,-0.32202,-1.1333
1.7351,1.4099,-1.9288,3.2412,1.9535,-0.61826,-0.26311,0.46969,-0.32462,-1.1326
1.7326,1.4088,-1.9269,3.2399,1.949,-0.61676,-0.26577,0.47132,-0.32722,-1.1318
1.7301,1.4077,-1.925,3.2386,1.9445,-0.61525,-0.26842,0.47295,-0.3298,-1.1311
1.7277,1.4067,-1.9231,3.2373,1.94,-0.61375,-0.27107,0.47457,-0.33238,-1.1304
1.7252,1.4056,-1.9212,3.2359,1.9354,-0.61223,-0.27371,0.47618,-0.33496,-1.1297
1.7228,1.4045,-1.9193,3.2346,1.9309,-0.61071,-0.27635,0.47779,-0.33752,-1.1289
1.7204,1.4034,-1.9174,3.2332,1.9264,-0.60919,-0.27899,0.47938,-0.34009,-1.1282
1.7179,1.4022,-1.9155,3.2319,1.9219,-0.60767,-0.28162,0.48098,-0.34264,-1.1274
1.7155,1.4011,-1.9135,3.2305,1.9174,-0.60614,-0.28424,0.48256,-0.34519,-1.1267
1.7131,1.4,-1.9116,3.2291,1.9129,-0.6046,-0.28686,0.48414,-0.34773,-1.1259
1.7107,1.3988,-1.9097,3.2277,1.9084,-0.60306,-0.28947,0.48571,-0.35026,-1.1252
1.7082,1.3977,-1.9077,3.2263,1.9039,-0.60152,-0.29208,0.48728,-0.35279,-1.1244
1.7058,1.3965,-1.9058,3.2249,1.8994,-0.59997,-0.29468,0.48884,-0.35531,-1.1236
1.7034,1.3953,-1.9038,3.2235,1.8949,-0.59842,-0.29727,0.49039,-0.35782,-1.1229
1.7011,1.3941,-1.9018,3.222,1.8904,-0.59686,-0.29986,0.49193,-0.36033,-1.1221
1.6987,1.3929,-1.8999,3.2206,1.8859,-0.5953,-0.30244,0.49347,-0.36282,-1.1213
1.6963,1.3917,-1.8979,3.2191,1.8814,-0.59374,-0.30502,0.495,-0.36532,-1.1205
1.6939,1.3905,-1.8959,3.2177,1.8769,-0.59217,-0.30759,0.49653,-0.3678,-1.1198
1.6916,1.3892,-1.8939,3.2162,1.8725,-0.5906,-0.31015,0.49804,-0.37028,-1.119
1.6892,1.388,-1.8919,3.2147,1.868,-0.58902,-0.3127,0.49955,-0.37275,-1.1182
1.6868,1.3867,-1.8899,3.2132,1.8635,-0.58744,-0.31525,0.50106,-0.37522,-1.1174
1.6845,1.3855,-1.8879,3.2117,1.8591,-0.58585,-0.31779,0.50255,-0.37767,-1.1166
1.6822,1.3842,-1.8859,3.2102,1.8546,-0.58426,-0.32032,0.50404,-0.38012,-1.1158
1.6798,1.3829,-1.8839,3.2087,1.8501,-0.58267,-0.32285,0.50553,-0.38257,-1.115
1.6775,1.3816,-1.8819,3.2071,1.8457,-0.58107,-0.32537,0.507,-0.385,-1.1142
1.6752,1.3803,-1.8798,3.2056,1.8412,-0.57947,-0.32788,0.50847,-0.38743,-1.1134
1.6729,1.379,-1.8778,3.204,1.8368,-0.57786,-0.33038,0.50993,-0.38985,-1.1125
1.6706,1.3776,-1.8757,3.2025,1.8323,-0.57625,-0.33287,0.51138,-0.39227,-1.1117
1.6682,1.3763,-1.8737,3.2009,1.8279,-0.57464,-0.33536,0.51283,-0.39468,-1.1109
1.666,1.375,-1.8716,3.1993,1.8234,-0.57302,-0.33783,0.51427,-0.39708,-1.1101
1.6637,1.3736,-1.8696,3.1977,1.819,-0.57139,-0.3403,0.5157,-0.39947,-1.1092
1.6614,1.3722,-1.8675,3.1961,1.8146,-0.56977,-0.34276,0.51713,-0.40185,-1.1084
1.6591,1.3709,-1.8654,3.1945,1.8101,-0.56813,-0.34521,0.51855,-0.40423,-1.1076
1.6568,1.3695,-1.8634,3.1929,1.8057,-0.5665,-0.34766,0.51996,-0.4066,-1.1067
1.6546,1.3681,-1.8613,3.1912,1.8013,-0.56486,-0.35009,0.52136,-0.40897,-1.1059
1.6523,1.3667,-1.8592,3.1896,1.7968,-0.56322,-0.35251,0.52276,-0.41132,-1.105
1.6501,1.3653,-1.8571,3.1879,1.7924,-0.56157,-0.35493,0.52415,-0.41367,-1.1042
1.6478,1.3638,-1.855,3.1863,1.788,-0.55992,-0.35733,0.52553,-0.41601,-1.1033
1.6456,1.3624,-1.8529,3.1846,1.7836,-0.55826,-0.35973,0.52691,-0.41835,-1.1024
1.6434,1.361,-1.8508,3.1829,1.7792,-0.5566,-0.36211,0.52827,-0.42067,-1.1016
1.6411,1.3595,-1.8487,3.1813,1.7748,-0.55494,-0.36449,0.52963,-0.42299,-1.1007
1.6389,1.358,-1.8466,3.1796,1.7704,-0.55327,-0.36685,0.53099,-0.4253,-1.0998
1.6367,1.3566,-1.8444,3.1778,1.766,-0.5516,-0.36921,0.53233,-0.42761,-1.099
1.6345,1.3551,-1.8423,3.1761,1.7616,-0.54992,-0.37155,0.53367,-0.4299,-1.0981
1.6323,1.3536,-1.8402,3.1744,1.7572,-0.54824,-0.37389,0.535,-0.43219,-1.0972
1.6301,1.3521,-1.838,3.1727,1.7528,-0.54655,-0.37621,0.53632,-0.43447,-1.0963
1.6279,1.3506,-1.8359,3.1709,1.7484,-0.54487,-0.37852,0.53764,-0.43675,-1.0954
1.6258,1.3491,-1.8337,3.1692,1.7441,-0.54317,-0.38083,0.53895,-0.43901,-1.0945
1.6236,1.3475,-1.8316,3.1674,1.7397,-0.54148,-0.38312,0.54025,-0.44127,-1.0936
1.6214,1.346,-1.8294,3.1657,1.7353,-0.53978,-0.3854,0.54154,-0.44352,-1.0927
1.6193,1.3445,-1.8272,3.1639,1.7309,-0.53807,-0.38767,0.54283,-0.44576,-1.0918
1.6171,1.3429,-1.8251,3.1621,1.7266,-0.53636,-0.38992,0.54411,-0.448,-1.0909
1.615,1.3413,-1.8229,3.1603,1.7222,-0.53465,-0.39217,0.54538,-0.45023,-1.09
1.6128,1.3398,-1.8207,3.1585,1.7179,-0.53294,-0.3944,0.54664,-0.45245,-1.0891
1.6107,1.3382,-1.8185,3.1567,1.7135,-0.53122,-0.39662,0.5479,-0.45466,-1.0882
1.6086,1.3366,-1.8163,3.1548,1.7091,-0.52949,-0.39883,0.54914,-0.45686,-1.0873
1.6065,1.335,-1.8141,3.153,1.7048,-0.52776,-0.40103,0.55038,-0.45906,-1.0863
1.6044,1.3334,-1.8119,3.1512,1.7005,-0.52603,-0.40321,0.55162,-0.46125,-1.0854
1.6023,1.3318,-1.8097,3.1493,1.6961,-0.5243,-0.40539,0.55284,-0.46343,-1.0845
1.6002,1.3301,-1.8075,3.1475,1.6918,-0.52256,-0.40755,0.55406,-0.4656,-1.0835
1.5981,1.3285,-1.8053,3.1456,1.6874,-0.52081,-0.4097,0.55527,-0.46776,-1.0826
1.596,1.3269,-1.803,3.1437,1.6831,-0.51906,-0.41183,0.55647,-0.46992,-1.0816
1.5939,1.3252,-1.8008,3.1418,1.6788,-0.51731,-0.41395,0.55767,-0.47207,-1.0807
1.5919,1.3236,-1.7986,3.1399,1.6745,-0.51556,-0.41606,0.55886,-0.47421,-1.0797
1.5898,1.3219,-1.7963,3.138,1.6702,-0.5138,-0.41816,0.56003,-0.47634,-1.0788
1.5878,1.3202,-1.7941,3.1361,1.6658,-0.51203,-0.42024,0.56121,-0.47847,-1.0778
1.5857,1.3185,-1.7918,3.1342,1.6615,-0.51027,-0.42231,0.56237,-0.48058,-1.0769
1.5837,1.3168,-1.7896,3.1323,1.6572,-0.5085,-0.42436,0.56353,-0.48269,-1.0759
1.5817,1.3151,-1.7873,3.1304,1.6529,-0.50672,-0.4264,0.56467,-0.48479,-1.0749
1.5796,1.3134,-1.7851,3.1284,1.6486,-0.50494,-0.42843,0.56581,-0.48688,-1.074
1.5776,1.3117,-1.7828,3.1265,1.6443,-0.50316,-0.43044,0.56695,-0.48897,-1.073
1.5756,1.31,-1.7805,3.1245,1.64,-0.50137,-0.43244,0.56807,-0.49104,-1.072
1.5736,1.3082,-1.7783,3.1225,1.6358,-0.49958,-0.43443,0.56919,-0.49311,-1.071
1.5716,1.3065,-1.776,3.1206,1.6315,-0.49779,-0.4364,0.5703,-0.49517,-1.07
1.5696,1.3048,-1.7737,3.1186,1.6272,-0.49599,-0.43836,0.5714,-0.49722,-1.069
1.5676,1.303,-1.7714,3.1166,1.6229,-0.49419,-0.4403,0.57249,-0.49927,-1.068
1.5657,1.3012,-1.7691,3.1146,1.6187,-0.49239,-0.44223,0.57358,-0.5013,-1.0671
1.5637,1.2995,-1.7668,3.1126,1.6144,-0.49058,-0.44414,0.57466,-0.50333,-1.0661
1.5617,1.2977,-1.7645,3.1106,1.6101,-0.48877,-0.44604,0.57573,-0.50535,-1.065
1.5598,1.2959,-1.7622,3.1085,1.6059,-0.48695,-0.44792,0.57679,-0.50736,-1.064
1.5578,1.2941,-1.7599,3.1065,1.6016,-0.48513,-0.44978,0.57784,-0.50936,-1.063
1.5559,1.2923,-1.7576,3.1045,1.5974,-0.4833,-0.45164,0.57889,-0.51135,-1.062
1.554,1.2905,-1.7553,3.1024,1.5931,-0.48148,-0.45347,0.57993,-0.51334,-1.061
1.5521,1.2887,-1.753,3.1003,1.5889,-0.47965,-0.45529,0.58096,-0.51532,-1.06
1.5501,1.2868,-1.7506,3.0983,1.5846,-0.47781,-0.4571,0.58198,-0.51729,-1.0589
1.5482,1.285,-1.7483,3.0962,1.5804,-0.47597,-0.45889,0.58299,-0.51925,-1.0579
1.5463,1.2832,-1.746,3.0941,1.5762,-0.47413,-0.46066,0.584,-0.5212,-1.0569
1.5444,1.2813,-1.7436,3.092,1.5719,-0.47228,-0.46242,0.585,-0.52314,-1.0558
1.5426,1.2795,-1.7413,3.0899,1.5677,-0.47043,-0.46416,0.58598,-0.52508,-1.0548
1.5407,1.2776,-1.7389,3.0878,1.5635,-0.46858,-0.46588,0.58697,-0.527,-1.0538
1.5388,1.2757,-1.7366,3.0857,1.5593,-0.46672,-0.46759,0.58794,-0.52892,-1.0527
1.5369,1.2739,-1.7342,3.0836,1.5551,-0.46486,-0.46928,0.58891,-0.53083,-1.0517
1.5351,1.272,-1.7319,3.0815,1.5509,-0.463,-0.47095,0.58986,-0.53273,-1.0506
1.5332,1.2701,-1.7295,3.0793,1.5467,-0.46113,-0.47261,0.59081,-0.53462,-1.0496
1.5314,1.2682,-1.7272,3.0772,1.5425,-0.45926,-0.47425,0.59175,-0.53651,-1.0485
1.5296,1.2663,-1.7248,3.0751,1.5383,-0.45738,-0.47588,0.59269,-0.53838,-1.0474
1.5277,1.2644,-1.7224,3.0729,1.5341,-0.45551,-0.47748,0.59361,-0.54025,-1.0464
1.5259,1.2625,-1.72,3.0707,1.5299,-0.45362,-0.47907,0.59453,-0.54211,-1.0453
1.5241,1.2606,-1.7177,3.0686,1.5257,-0.45174,-0.48065,0.59544,-0.54396,-1.0442
1.5223,1.2586,-1.7153,3.0664,1.5216,-0.44985,-0.4822,0.59634,-0.5458,-1.0431
1.5205,1.2567,-1.7129,3.0642,1.5174,-0.44795,-0.48374,0.59723,-0.54763,-1.0421
1.5187,1.2548,-1.7105,3.062,1.5132,-0.44606,-0.48526,0.59811,-0.54945,-1.041
1.5169,1.2528,-1.7081,3.0598,1.5091,-0.44416,-0.48676,0.59899,-0.55127,-1.0399
1.5152,1.2509,-1.7057,3.0576,1.5049,-0.44225,-0.48825,0.59986,-0.55308,-1.0388
1.5134,1.2489,-1.7033,3.0554,1.5008,-0.44035,-0.48971,0.60072,-0.55487,-1.0377
1.5117,1.247,-1.7009,3.0531,1.4966,-0.43844,-0.49116,0.60157,-0.55666,-1.0366
1.5099,1.245,-1.6985,3.0509,1.4925,-0.43652,-0.49259,0.60241,-0.55844,-1.0355
1.5082,1.243,-1.6961,3.0487,1.4883,-0.4346,-0.494,0.60324,-0.56021,-1.0344
1.5064,1.241,-1.6937,3.0464,1.4842,-0.43268,-0.49539,0.60407,-0.56198,-1.0333
1.5047,1.2391,-1.6913,3.0442,1.4801,-0.43076,-0.49677,0.60489,-0.56373,-1.0322
1.503,1.2371,-1.6888,3.0419,1.4759,-0.42883,-0.49813,0.6057,-0.56548,-1.0311
1.5013,1.2351,-1.6864,3.0397,1.4718,-0.4269,-0.49946,0.6065,-0.56721,-1.0299
1.4996,1.2331,-1.684,3.0374,1.4677,-0.42496,-0.50078,0.60729,-0.56894,-1.0288
1.4979,1.2311,-1.6815,3.0351,1.4636,-0.42303,-0.50208,0.60807,-0.57066,-1.0277
1.4962,1.2291,-1.6791,3.0328,1.4595,-0.42108,-0.50336,0.60885,-0.57237,-1.0266
1.4945,1.227,-1.6767,3.0305,1.4554,-0.41914,-0.50462,0.60962,-0.57407,-1.0254
1.4928,1.225,-1.6742,3.0282,1.4513,-0.41719,-0.50587,0.61038,-0.57576,-1.0243
1.4912,1.223,-1.6718,3.0259,1.4472,-0.41524,-0.50709,0.61113,-0.57744,-1.0232
1.4895,1.221,-1.6693,3.0236,1.4431,-0.41328,-0.50829,0.61187,-0.57912,-1.022
1.4879,1.2189,-1.6669,3.0213,1.439,-0.41132,-0.50948,0.6126,-0.58078,-1.0209
1.4862,1.2169,-1.6644,3.019,1.4349,-0.40936,-0.51064,0.61333,-0.58244,-1.0197
1.4846,1.2148,-1.662,3.0166,1.4308,-0.4074,-0.51179,0.61405,-0.58409,-1.0186
1.483,1.2128,-1.6595,3.0143,1.4268,-0.40543,-0.51291,0.61476,-0.58573,-1.0174
1.4813,1.2107,-1.6571,3.0119,1.4227,-0.40346,-0.51402,0.61546,-0.58736,-1.0163
1.4797,1.2087,-1.6546,3.0096,1.4186,-0.40148,-0.5151,0.61615,-0.58898,-1.0151
1.4781,1.2066,-1.6521,3.0072,1.4146,-0.3995,-0.51617,0.61683,-0.59059,-1.0139
1.4765,1.2045,-1.6497,3.0049,1.4105,-0.39752,-0.51721,0.61751,-0.59219,-1.0128
1.4749,1.2025,-1.6472,3.0025,1.4065,-0.39553,-0.51824,0.61817,-0.59378,-1.0116
1.4734,1.2004,-1.6447,3.0001,1.4024,-0.39355,-0.51924,0.61883,-0.59537,-1.0104
1.4718,1.1983,-1.6423,2.9977,1.3984,-0.39155,-0.52022,0.61948,-0.59694,-1.0092
1.4702,1.1962,-1.6398,2.9953,1.3944,-0.38956,-0.52119,0.62012,-0.59851,-1.0081
1.4687,1.1942,-1.6373,2.9929,1.3903,-0.38756,-0.52213,0.62075,-0.60007,-1.0069
1.4671,1.1921,-1.6348,2.9905,1.3863,-0.38556,-0.52305,0.62138,-0.60162,-1.0057
1.4656,1.19,-1.6323,2.9881,1.3823,-0.38355,-0.52395,0.62199,-0.60315,-1.0045
1.4641,1.1879,-1.6298,2.9857,1.3783,-0.38154,-0.52484,0.6226,-0.60468,-1.0033
1.4625,1.1858,-1.6273,2.9833,1.3743,-0.37953,-0.5257,0.6232,-0.60621,-1.0021
1.461,1.1837,-1.6248,2.9809,1.3703,-0.37752,-0.52653,0.62379,-0.60772,-1.0009
1.4595,1.1816,-1.6224,2.9784,1.3663,-0.3755,-0.52735,0.62437,-0.60922,-0.99969
1.458,1.1794,-1.6199,2.976,1.3623,-0.37348,-0.52815,0.62494,-0.61071,-0.99848
1.4565,1.1773,-1.6174,2.9735,1.3583,-0.37146,-0.52892,0.6255,-0.6122,-0.99727
1.4551,1.1752,-1.6148,2.9711,1.3543,-0.36943,-0.52968,0.62606,-0.61367,-0.99605
1.4536,1.1731,-1.6123,2.9686,1.3503,-0.3674,-0.53041,0.6266,-0.61514,-0.99483
1.4521,1.171,-1.6098,2.9662,1.3463,-0.36536,-0.53112,0.62714,-0.6166,-0.99361
1.4507,1.1688,-1.6073,2.9637,1.3423,-0.36333,-0.53181,0.62767,-0.61804,-0.99239
1.4492,1.1667,-1.6048,2.9612,1.3384,-0.36129,-0.53248,0.62819,-0.61948,-0.99116
1.4478,1.1646,-1.6023,2.9588,1.3344,-0.35924,-0.53313,0.6287,-0.62091,-0.98993
1.4463,1.1625,-1.5998,2.9563,1.3305,-0.3572,-0.53375,0.62921,-0.62233,-0.98869
1.4449,1.1603,-1.5973,2.9538,1.3265,-0.35515,-0.53435,0.6297,-0.62374,-0.98745
1.4435,1.1582,-1.5947,2.9513,1.3226,-0.3531,-0.53494,0.63019,-0.62514,-0.98621
1.4421,1.156,-1.5922,2.9488,1.3186,-0.35104,-0.5355,0.63066,-0.62654,-0.98497
1.4407,1.1539,-1.5897,2.9463,1.3147,-0.34898,-0.53603,0.63113,-0.62792,-0.98372
